;FLAVOR:Marlin
;TIME:1158
;Filament used: 0.427512m
;Layer height: 0.15
;MINX:94.7
;MINY:93.2
;MINZ:0.2
;MAXX:125.3
;MAXY:120.3
;MAXZ:9.95
;Generated with Cura_SteamEngine 4.11.0
M140 S65
M105
M190 S65
M104 S210
M105
M109 S210
M82 ;absolute extrusion mode
M201 X500.00 Y500.00 Z100.00 E5000.00 ;Setup machine max acceleration
M203 X500.00 Y500.00 Z10.00 E50.00 ;Setup machine max feedrate
M204 P500.00 R1000.00 T500.00 ;Setup Print/Retract/Travel acceleration
M205 X8.00 Y8.00 Z0.40 E5.00 ;Setup Jerk
M220 S100 ;Reset Feedrate
M221 S100 ;Reset Flowrate

G28 ;Home
G29 ;Auto Bed Leveling
M420 S1 Z2 ;Enable ABL using saved Mesh and Fade Height

G92 E0 ;Reset Extruder
G1 Z2.0 F3000 ;Move Z Axis up
G1 X10.1 Y20 Z0.28 F5000.0 ;Move to start position
G1 X10.1 Y200.0 Z0.28 F1500.0 E15 ;Draw the first line
G1 X10.4 Y200.0 Z0.28 F5000.0 ;Move to side a little
G1 X10.4 Y20 Z0.28 F1500.0 E30 ;Draw the second line
G92 E0 ;Reset Extruder
G1 Z2.0 F3000 ;Move Z Axis up
G92 E0
G92 E0
G1 F2700 E-5
;LAYER_COUNT:66
;LAYER:0
M107
G0 F6000 X97.123 Y95.349 Z0.2
;TYPE:SKIRT
G1 F2700 E0
G1 F600 X97.722 Y94.834 E0.02627
G1 X98.37 Y94.383 E0.05253
G1 X99.061 Y93.999 E0.07883
G1 X99.786 Y93.687 E0.10508
G1 X100.539 Y93.45 E0.13133
G1 X101.313 Y93.291 E0.15761
G1 X102.098 Y93.21 E0.18386
G1 X102.5 Y93.2 E0.19724
G1 X117.5 Y93.2 E0.69614
G1 X118.289 Y93.24 E0.72242
G1 X119.069 Y93.359 E0.74866
G1 X119.834 Y93.557 E0.77494
G1 X120.574 Y93.831 E0.80119
G1 X121.283 Y94.179 E0.82745
G1 X121.954 Y94.597 E0.85375
G1 X122.578 Y95.08 E0.87999
G1 X123.151 Y95.623 E0.90625
G1 X123.666 Y96.222 E0.93252
G1 X124.117 Y96.87 E0.95878
G1 X124.501 Y97.561 E0.98508
G1 X124.813 Y98.286 E1.01133
G1 X125.05 Y99.039 E1.03758
G1 X125.209 Y99.813 E1.06386
G1 X125.29 Y100.598 E1.09011
G1 X125.3 Y101 E1.10349
G1 X125.3 Y106 E1.26979
G1 X125.259 Y106.796 E1.2963
G1 X125.29 Y107.098 E1.3064
G1 X125.3 Y107.5 E1.31977
G1 X125.3 Y112.5 E1.48607
G1 X125.26 Y113.289 E1.51235
G1 X125.141 Y114.069 E1.53859
G1 X124.943 Y114.834 E1.56487
G1 X124.669 Y115.574 E1.59112
G1 X124.321 Y116.283 E1.61739
G1 X123.903 Y116.954 E1.64368
G1 X123.42 Y117.578 E1.66993
G1 X122.877 Y118.151 E1.69618
G1 X122.278 Y118.666 E1.72246
G1 X121.63 Y119.117 E1.74871
G1 X120.939 Y119.501 E1.77501
G1 X120.214 Y119.813 E1.80126
G1 X119.461 Y120.05 E1.82752
G1 X118.687 Y120.209 E1.8538
G1 X117.902 Y120.29 E1.88004
G1 X117.5 Y120.3 E1.89342
G1 X102.5 Y120.3 E2.39232
G1 X101.711 Y120.26 E2.4186
G1 X100.931 Y120.141 E2.44484
G1 X100.166 Y119.943 E2.47112
G1 X99.426 Y119.669 E2.49737
G1 X98.717 Y119.321 E2.52364
G1 X98.046 Y118.903 E2.54993
G1 X97.422 Y118.42 E2.57618
G1 X96.849 Y117.877 E2.60243
G1 X96.334 Y117.278 E2.62871
G1 X95.883 Y116.63 E2.65496
G1 X95.499 Y115.939 E2.68126
G1 X95.187 Y115.214 E2.70751
G1 X94.95 Y114.461 E2.73377
G1 X94.791 Y113.687 E2.76005
G1 X94.71 Y112.902 E2.78629
G1 X94.7 Y112.5 E2.79967
G1 X94.7 Y107.5 E2.96597
G1 X94.741 Y106.704 E2.99248
G1 X94.71 Y106.402 E3.00258
G1 X94.7 Y106 E3.01595
G1 X94.7 Y101 E3.18225
G1 X94.74 Y100.211 E3.20853
G1 X94.859 Y99.431 E3.23477
G1 X95.057 Y98.666 E3.26105
G1 X95.331 Y97.926 E3.2873
G1 X95.679 Y97.217 E3.31357
G1 X96.097 Y96.546 E3.33986
G1 X96.58 Y95.922 E3.36611
G1 X97.123 Y95.349 E3.39236
G0 F6000 X97.516 Y95.53
G1 F600 X98.111 Y95.042 E3.41796
G1 X98.753 Y94.619 E3.44353
G1 X99.436 Y94.264 E3.46913
G1 X100.151 Y93.983 E3.49468
G1 X100.893 Y93.777 E3.5203
G1 X101.651 Y93.649 E3.54586
G1 X102.5 Y93.6 E3.57415
G1 X117.5 Y93.6 E4.07305
G1 X118.268 Y93.64 E4.09863
G1 X119.028 Y93.759 E4.12421
G1 X119.771 Y93.957 E4.14979
G1 X120.49 Y94.231 E4.17538
G1 X121.176 Y94.578 E4.20095
G1 X121.823 Y94.994 E4.22653
G1 X122.423 Y95.475 E4.25211
G1 X122.97 Y96.016 E4.2777
G1 X123.458 Y96.611 E4.30329
G1 X123.881 Y97.253 E4.32886
G1 X124.236 Y97.936 E4.35447
G1 X124.517 Y98.651 E4.38002
G1 X124.723 Y99.393 E4.40563
G1 X124.851 Y100.151 E4.4312
G1 X124.9 Y101 E4.45948
G1 X124.9 Y106 E4.62578
G1 X124.86 Y106.768 E4.65136
G1 X124.858 Y106.778 E4.6517
G1 X124.9 Y107.5 E4.67576
G1 X124.9 Y112.5 E4.84206
G1 X124.86 Y113.268 E4.86764
G1 X124.741 Y114.028 E4.89322
G1 X124.543 Y114.771 E4.9188
G1 X124.269 Y115.49 E4.94439
G1 X123.922 Y116.176 E4.96996
G1 X123.506 Y116.823 E4.99554
G1 X123.025 Y117.423 E5.02112
G1 X122.484 Y117.97 E5.04671
G1 X121.889 Y118.458 E5.0723
G1 X121.247 Y118.881 E5.09787
G1 X120.564 Y119.236 E5.12347
G1 X119.849 Y119.517 E5.14903
G1 X119.107 Y119.723 E5.17464
G1 X118.349 Y119.851 E5.20021
G1 X117.5 Y119.9 E5.22849
G1 X102.5 Y119.9 E5.72739
G1 X101.732 Y119.86 E5.75297
G1 X100.972 Y119.741 E5.77856
G1 X100.229 Y119.543 E5.80413
G1 X99.51 Y119.269 E5.82972
G1 X98.824 Y118.922 E5.85529
G1 X98.177 Y118.506 E5.88088
G1 X97.577 Y118.025 E5.90645
G1 X97.03 Y117.484 E5.93204
G1 X96.542 Y116.889 E5.95764
G1 X96.119 Y116.247 E5.98321
G1 X95.764 Y115.564 E6.00881
G1 X95.483 Y114.849 E6.03436
G1 X95.277 Y114.107 E6.05997
G1 X95.149 Y113.349 E6.08554
G1 X95.1 Y112.5 E6.11383
G1 X95.1 Y107.5 E6.28013
G1 X95.14 Y106.732 E6.30571
G1 X95.142 Y106.722 E6.30604
G1 X95.1 Y106 E6.3301
G1 X95.1 Y101 E6.4964
G1 X95.14 Y100.232 E6.52198
G1 X95.259 Y99.472 E6.54756
G1 X95.457 Y98.729 E6.57314
G1 X95.731 Y98.01 E6.59873
G1 X96.078 Y97.324 E6.6243
G1 X96.494 Y96.677 E6.64988
G1 X96.975 Y96.077 E6.67546
G1 X97.516 Y95.53 E6.70105
G0 F6000 X97.908 Y95.716
G1 F600 X98.498 Y95.257 E6.72591
G1 X99.134 Y94.862 E6.75081
G1 X99.808 Y94.538 E6.77569
G1 X100.513 Y94.288 E6.80056
G1 X101.241 Y94.114 E6.82546
G1 X101.983 Y94.019 E6.85034
G1 X102.5 Y94 E6.86755
G1 X117.5 Y94 E7.36645
G1 X118.247 Y94.04 E7.39133
G1 X118.985 Y94.159 E7.41619
G1 X119.707 Y94.357 E7.44109
G1 X120.403 Y94.63 E7.46596
G1 X121.066 Y94.977 E7.49085
G1 X121.689 Y95.392 E7.51575
G1 X122.263 Y95.871 E7.54061
G1 X122.784 Y96.408 E7.5655
G1 X123.243 Y96.998 E7.59036
G1 X123.638 Y97.634 E7.61526
G1 X123.962 Y98.308 E7.64013
G1 X124.212 Y99.013 E7.66501
G1 X124.386 Y99.741 E7.68991
G1 X124.481 Y100.483 E7.71479
G1 X124.5 Y101 E7.732
G1 X124.5 Y106 E7.8983
G1 X124.46 Y106.747 E7.92318
G1 X124.481 Y106.983 E7.93106
G1 X124.5 Y107.5 E7.94827
G1 X124.5 Y112.5 E8.11457
G1 X124.46 Y113.247 E8.13945
G1 X124.341 Y113.985 E8.16431
G1 X124.143 Y114.707 E8.18921
G1 X123.87 Y115.403 E8.21408
G1 X123.523 Y116.066 E8.23897
G1 X123.108 Y116.689 E8.26386
G1 X122.629 Y117.263 E8.28873
G1 X122.092 Y117.784 E8.31361
G1 X121.502 Y118.243 E8.33848
G1 X120.866 Y118.638 E8.36338
G1 X120.192 Y118.962 E8.38825
G1 X119.487 Y119.212 E8.41313
G1 X118.759 Y119.386 E8.43803
G1 X118.017 Y119.481 E8.46291
G1 X117.5 Y119.5 E8.48011
G1 X102.5 Y119.5 E8.97901
G1 X101.753 Y119.46 E9.0039
G1 X101.015 Y119.341 E9.02876
G1 X100.293 Y119.143 E9.05366
G1 X99.597 Y118.87 E9.07853
G1 X98.934 Y118.523 E9.10341
G1 X98.311 Y118.108 E9.12831
G1 X97.737 Y117.629 E9.15318
G1 X97.216 Y117.092 E9.17806
G1 X96.757 Y116.502 E9.20293
G1 X96.362 Y115.866 E9.22783
G1 X96.038 Y115.192 E9.2527
G1 X95.788 Y114.487 E9.27758
G1 X95.614 Y113.759 E9.30247
G1 X95.519 Y113.017 E9.32735
G1 X95.5 Y112.5 E9.34456
G1 X95.5 Y107.5 E9.51086
G1 X95.54 Y106.753 E9.53574
G1 X95.519 Y106.517 E9.54362
G1 X95.5 Y106 E9.56083
G1 X95.5 Y101 E9.72713
G1 X95.54 Y100.253 E9.75201
G1 X95.659 Y99.515 E9.77688
G1 X95.857 Y98.793 E9.80178
G1 X96.13 Y98.097 E9.82664
G1 X96.477 Y97.434 E9.85153
G1 X96.892 Y96.811 E9.87643
G1 X97.371 Y96.237 E9.90129
G1 X97.908 Y95.716 E9.92618
G0 F6000 X97.765 Y96.402
G1 F600 X98.299 Y95.909 E9.95035
G1 X98.884 Y95.479 E9.9745
G1 X99.513 Y95.115 E9.99867
G1 X100.178 Y94.822 E10.02284
G1 X100.871 Y94.604 E10.047
G1 X101.583 Y94.464 E10.07114
G1 X102.5 Y94.4 E10.10171
G1 X117.5 Y94.4 E10.60061
G1 X118.225 Y94.44 E10.62476
G1 X118.942 Y94.559 E10.64894
G1 X119.641 Y94.757 E10.6731
G1 X120.314 Y95.03 E10.69726
G1 X120.953 Y95.375 E10.72141
G1 X121.55 Y95.789 E10.74557
G1 X122.098 Y96.265 E10.76972
G1 X122.591 Y96.799 E10.79389
G1 X123.021 Y97.384 E10.81804
G1 X123.385 Y98.013 E10.84221
G1 X123.678 Y98.678 E10.86638
G1 X123.896 Y99.371 E10.89054
G1 X124.036 Y100.083 E10.91468
G1 X124.1 Y101 E10.94525
G1 X124.1 Y106 E11.11155
G1 X124.06 Y106.725 E11.1357
G1 X124.05 Y106.785 E11.13772
G1 X124.1 Y107.5 E11.16156
G1 X124.1 Y112.5 E11.32786
G1 X124.06 Y113.225 E11.35201
G1 X123.941 Y113.942 E11.37619
G1 X123.743 Y114.641 E11.40035
G1 X123.47 Y115.314 E11.42451
G1 X123.125 Y115.953 E11.44866
G1 X122.711 Y116.55 E11.47282
G1 X122.235 Y117.098 E11.49696
G1 X121.701 Y117.591 E11.52114
G1 X121.116 Y118.021 E11.54529
G1 X120.487 Y118.385 E11.56946
G1 X119.822 Y118.678 E11.59363
G1 X119.129 Y118.896 E11.61779
G1 X118.417 Y119.036 E11.64192
G1 X117.5 Y119.1 E11.6725
G1 X102.5 Y119.1 E12.1714
G1 X101.775 Y119.06 E12.19555
G1 X101.058 Y118.941 E12.21972
G1 X100.359 Y118.743 E12.24389
G1 X99.686 Y118.47 E12.26804
G1 X99.047 Y118.125 E12.2922
G1 X98.45 Y117.711 E12.31636
G1 X97.902 Y117.235 E12.3405
G1 X97.409 Y116.701 E12.36467
G1 X96.979 Y116.116 E12.38882
G1 X96.615 Y115.487 E12.41299
G1 X96.322 Y114.822 E12.43716
G1 X96.104 Y114.129 E12.46133
G1 X95.964 Y113.417 E12.48546
G1 X95.9 Y112.5 E12.51603
G1 X95.9 Y107.5 E12.68234
G1 X95.94 Y106.775 E12.70649
G1 X95.95 Y106.715 E12.70851
G1 X95.9 Y106 E12.73235
G1 X95.9 Y101 E12.89865
G1 X95.94 Y100.275 E12.9228
G1 X96.059 Y99.558 E12.94697
G1 X96.257 Y98.859 E12.97114
G1 X96.53 Y98.186 E12.99529
G1 X96.875 Y97.547 E13.01944
G1 X97.289 Y96.95 E13.04361
G1 X97.765 Y96.402 E13.06775
G0 F6000 X98.159 Y96.573
G1 F600 X98.689 Y96.109 E13.09118
G1 X99.268 Y95.709 E13.11459
G1 X99.889 Y95.377 E13.13801
G1 X100.543 Y95.117 E13.16141
G1 X101.223 Y94.933 E13.18484
G1 X101.919 Y94.827 E13.20826
G1 X102.5 Y94.8 E13.22761
G1 X117.5 Y94.8 E13.72651
G1 X118.203 Y94.84 E13.74993
G1 X118.897 Y94.959 E13.77335
G1 X119.572 Y95.157 E13.79674
G1 X120.221 Y95.429 E13.82015
G1 X120.835 Y95.774 E13.84357
G1 X121.406 Y96.185 E13.86697
G1 X121.927 Y96.659 E13.8904
G1 X122.391 Y97.189 E13.91383
G1 X122.791 Y97.768 E13.93724
G1 X123.123 Y98.389 E13.96066
G1 X123.383 Y99.043 E13.98406
G1 X123.567 Y99.723 E14.00749
G1 X123.673 Y100.419 E14.03091
G1 X123.7 Y101 E14.05026
G1 X123.7 Y106 E14.21656
G1 X123.66 Y106.703 E14.23998
G1 X123.673 Y106.919 E14.24717
G1 X123.7 Y107.5 E14.26652
G1 X123.7 Y112.5 E14.43282
G1 X123.66 Y113.203 E14.45624
G1 X123.541 Y113.897 E14.47966
G1 X123.343 Y114.572 E14.50305
G1 X123.071 Y115.221 E14.52646
G1 X122.726 Y115.835 E14.54988
G1 X122.315 Y116.406 E14.57328
G1 X121.841 Y116.927 E14.59671
G1 X121.311 Y117.391 E14.62014
G1 X120.732 Y117.791 E14.64355
G1 X120.111 Y118.123 E14.66697
G1 X119.457 Y118.383 E14.69037
G1 X118.777 Y118.567 E14.7138
G1 X118.081 Y118.673 E14.73722
G1 X117.5 Y118.7 E14.75657
G1 X102.5 Y118.7 E15.25547
G1 X101.797 Y118.66 E15.27889
G1 X101.103 Y118.541 E15.30231
G1 X100.428 Y118.343 E15.3257
G1 X99.779 Y118.071 E15.34911
G1 X99.165 Y117.726 E15.37253
G1 X98.594 Y117.315 E15.39593
G1 X98.073 Y116.841 E15.41936
G1 X97.609 Y116.311 E15.44279
G1 X97.209 Y115.732 E15.46619
G1 X96.877 Y115.111 E15.48962
G1 X96.617 Y114.457 E15.51302
G1 X96.433 Y113.777 E15.53645
G1 X96.327 Y113.081 E15.55987
G1 X96.3 Y112.5 E15.57922
G1 X96.3 Y107.5 E15.74552
G1 X96.34 Y106.797 E15.76894
G1 X96.327 Y106.581 E15.77613
G1 X96.3 Y106 E15.79548
G1 X96.3 Y101 E15.96178
G1 X96.34 Y100.297 E15.9852
G1 X96.459 Y99.603 E16.00862
G1 X96.657 Y98.928 E16.03201
G1 X96.929 Y98.279 E16.05542
G1 X97.274 Y97.665 E16.07884
G1 X97.685 Y97.094 E16.10224
G1 X98.159 Y96.573 E16.12567
G0 F6000 X98.553 Y96.751
G1 F600 X99.078 Y96.317 E16.14833
G1 X99.65 Y95.948 E16.17097
G1 X100.262 Y95.649 E16.19362
G1 X100.904 Y95.424 E16.21625
G1 X101.569 Y95.275 E16.23891
G1 X102.5 Y95.2 E16.26998
G1 X117.5 Y95.2 E16.76888
G1 X118.18 Y95.24 E16.79154
G1 X118.85 Y95.359 E16.81417
G1 X119.502 Y95.556 E16.83682
G1 X120.126 Y95.828 E16.85946
G1 X120.714 Y96.172 E16.88212
G1 X121.258 Y96.582 E16.90478
G1 X121.749 Y97.053 E16.92741
G1 X122.183 Y97.578 E16.95006
G1 X122.552 Y98.15 E16.9727
G1 X122.851 Y98.762 E16.99536
G1 X123.076 Y99.404 E17.01799
G1 X123.225 Y100.069 E17.04065
G1 X123.3 Y101 E17.07172
G1 X123.3 Y106 E17.23802
G1 X123.26 Y106.68 E17.26067
G1 X123.242 Y106.781 E17.26409
G1 X123.3 Y107.5 E17.28808
G1 X123.3 Y112.5 E17.45438
G1 X123.26 Y113.18 E17.47703
G1 X123.141 Y113.85 E17.49967
G1 X122.944 Y114.502 E17.52232
G1 X122.672 Y115.126 E17.54496
G1 X122.328 Y115.714 E17.56762
G1 X121.918 Y116.258 E17.59028
G1 X121.447 Y116.749 E17.61291
G1 X120.922 Y117.183 E17.63556
G1 X120.35 Y117.552 E17.6582
G1 X119.738 Y117.851 E17.68086
G1 X119.096 Y118.076 E17.70348
G1 X118.431 Y118.225 E17.72615
G1 X117.5 Y118.3 E17.75721
G1 X102.5 Y118.3 E18.25612
G1 X101.82 Y118.26 E18.27877
G1 X101.15 Y118.141 E18.30141
G1 X100.498 Y117.944 E18.32406
G1 X99.874 Y117.672 E18.3467
G1 X99.286 Y117.328 E18.36936
G1 X98.742 Y116.918 E18.39201
G1 X98.251 Y116.447 E18.41464
G1 X97.817 Y115.922 E18.4373
G1 X97.448 Y115.35 E18.45994
G1 X97.149 Y114.738 E18.48259
G1 X96.924 Y114.096 E18.50522
G1 X96.775 Y113.431 E18.52789
G1 X96.7 Y112.5 E18.55895
G1 X96.7 Y107.5 E18.72525
G1 X96.74 Y106.82 E18.74791
G1 X96.758 Y106.719 E18.75132
G1 X96.7 Y106 E18.77531
G1 X96.7 Y101 E18.94161
G1 X96.74 Y100.32 E18.96427
G1 X96.859 Y99.65 E18.9869
G1 X97.056 Y98.998 E19.00956
G1 X97.328 Y98.374 E19.0322
G1 X97.672 Y97.786 E19.05486
G1 X98.082 Y97.242 E19.07751
G1 X98.553 Y96.751 E19.10014
G0 F6000 X98.945 Y96.935
G1 F600 X99.465 Y96.534 E19.12198
G1 X100.029 Y96.198 E19.14382
G1 X100.631 Y95.934 E19.16568
G1 X101.26 Y95.744 E19.18754
G1 X101.907 Y95.633 E19.20937
G1 X102.5 Y95.6 E19.22912
G1 X117.5 Y95.6 E19.72802
G1 X118.156 Y95.64 E19.74988
G1 X118.802 Y95.759 E19.77173
G1 X119.429 Y95.956 E19.79359
G1 X120.027 Y96.228 E19.81544
G1 X120.588 Y96.57 E19.83729
G1 X121.103 Y96.978 E19.85915
G1 X121.565 Y97.445 E19.881
G1 X121.966 Y97.965 E19.90284
G1 X122.302 Y98.529 E19.92467
G1 X122.566 Y99.131 E19.94653
G1 X122.756 Y99.76 E19.96839
G1 X122.867 Y100.407 E19.99022
G1 X122.9 Y101 E20.00998
G1 X122.9 Y106 E20.17628
G1 X122.86 Y106.656 E20.19814
G1 X122.867 Y106.907 E20.20649
G1 X122.9 Y107.5 E20.22624
G1 X122.9 Y112.5 E20.39254
G1 X122.86 Y113.156 E20.4144
G1 X122.741 Y113.802 E20.43625
G1 X122.544 Y114.429 E20.45811
G1 X122.272 Y115.027 E20.47996
G1 X121.93 Y115.588 E20.50181
G1 X121.522 Y116.103 E20.52366
G1 X121.055 Y116.565 E20.54551
G1 X120.535 Y116.966 E20.56735
G1 X119.971 Y117.302 E20.58919
G1 X119.369 Y117.566 E20.61105
G1 X118.74 Y117.756 E20.63291
G1 X118.093 Y117.867 E20.65474
G1 X117.5 Y117.9 E20.67449
G1 X102.5 Y117.9 E21.1734
G1 X101.844 Y117.86 E21.19526
G1 X101.198 Y117.741 E21.2171
G1 X100.571 Y117.544 E21.23896
G1 X99.973 Y117.272 E21.26081
G1 X99.412 Y116.93 E21.28267
G1 X98.897 Y116.522 E21.30452
G1 X98.435 Y116.055 E21.32637
G1 X98.034 Y115.535 E21.34821
G1 X97.698 Y114.971 E21.37004
G1 X97.434 Y114.369 E21.39191
G1 X97.244 Y113.74 E21.41376
G1 X97.133 Y113.093 E21.43559
G1 X97.1 Y112.5 E21.45535
G1 X97.1 Y107.5 E21.62165
G1 X97.14 Y106.844 E21.64351
G1 X97.133 Y106.593 E21.65186
G1 X97.1 Y106 E21.67161
G1 X97.1 Y101 E21.83791
G1 X97.14 Y100.344 E21.85977
G1 X97.259 Y99.698 E21.88162
G1 X97.456 Y99.071 E21.90348
G1 X97.728 Y98.473 E21.92533
G1 X98.07 Y97.912 E21.94718
G1 X98.478 Y97.397 E21.96904
G1 X98.945 Y96.935 E21.99089
G0 F6000 X98.873 Y97.559
G1 F600 X99.336 Y97.129 E22.0119
G1 X99.85 Y96.76 E22.03295
G1 X100.406 Y96.46 E22.05396
G1 X100.995 Y96.232 E22.07497
G1 X101.609 Y96.08 E22.096
G1 X102.5 Y96 E22.12576
G1 X117.5 Y96 E22.62466
G1 X118.131 Y96.04 E22.64569
G1 X118.752 Y96.159 E22.66672
G1 X119.352 Y96.356 E22.68772
G1 X119.924 Y96.627 E22.70878
G1 X120.456 Y96.967 E22.72978
G1 X120.941 Y97.373 E22.75081
G1 X121.371 Y97.836 E22.77183
G1 X121.74 Y98.35 E22.79287
G1 X122.04 Y98.906 E22.81389
G1 X122.268 Y99.495 E22.83489
G1 X122.42 Y100.109 E22.85593
G1 X122.5 Y101 E22.88569
G1 X122.5 Y106 E23.05199
G1 X122.46 Y106.631 E23.07302
G1 X122.434 Y106.766 E23.07759
G1 X122.5 Y107.5 E23.1021
G1 X122.5 Y112.5 E23.2684
G1 X122.46 Y113.131 E23.28943
G1 X122.341 Y113.752 E23.31046
G1 X122.144 Y114.352 E23.33146
G1 X121.873 Y114.924 E23.35252
G1 X121.533 Y115.456 E23.37352
