;FLAVOR:Marlin
;TIME:22140
;Filament used: 10.4018m
;Layer height: 0.15
;MINX:52.2
;MINY:69.2
;MINZ:0.2
;MAXX:167.8
;MAXY:150.8
;MAXZ:20
;Generated with Cura_SteamEngine 4.11.0
M140 S65
M105
M190 S65
M104 S210
M105
M109 S210
M82 ;absolute extrusion mode
M201 X500.00 Y500.00 Z100.00 E5000.00 ;Setup machine max acceleration
M203 X500.00 Y500.00 Z10.00 E50.00 ;Setup machine max feedrate
M204 P500.00 R1000.00 T500.00 ;Setup Print/Retract/Travel acceleration
M205 X8.00 Y8.00 Z0.40 E5.00 ;Setup Jerk
M220 S100 ;Reset Feedrate
M221 S100 ;Reset Flowrate

G28 ;Home
G29 ;Auto Bed Leveling
M420 S1 Z2 ;Enable ABL using saved Mesh and Fade Height

G92 E0 ;Reset Extruder
G1 Z2.0 F3000 ;Move Z Axis up
G1 X10.1 Y20 Z0.28 F5000.0 ;Move to start position
G1 X10.1 Y200.0 Z0.28 F1500.0 E15 ;Draw the first line
G1 X10.4 Y200.0 Z0.28 F5000.0 ;Move to side a little
G1 X10.4 Y20 Z0.28 F1500.0 E30 ;Draw the second line
G92 E0 ;Reset Extruder
G1 Z2.0 F3000 ;Move Z Axis up
G92 E0
G92 E0
G1 F2700 E-5
;LAYER_COUNT:133
;LAYER:0
M107
G0 F6000 X55.222 Y70.834 Z0.2
;TYPE:SKIRT
G1 F2700 E0
G1 F600 X55.87 Y70.383 E0.02626
G1 X56.561 Y69.999 E0.05255
G1 X57.286 Y69.687 E0.0788
G1 X58.039 Y69.45 E0.10506
G1 X58.813 Y69.291 E0.13134
G1 X59.598 Y69.21 E0.15759
G1 X60 Y69.2 E0.17096
G1 X160 Y69.2 E3.49698
G1 X160.789 Y69.24 E3.52325
G1 X161.569 Y69.359 E3.5495
G1 X162.334 Y69.557 E3.57578
G1 X163.074 Y69.831 E3.60202
G1 X163.783 Y70.179 E3.62829
G1 X164.454 Y70.597 E3.65459
G1 X165.078 Y71.08 E3.68083
G1 X165.651 Y71.623 E3.70709
G1 X166.166 Y72.222 E3.73336
G1 X166.617 Y72.87 E3.75962
G1 X167.001 Y73.561 E3.78591
G1 X167.313 Y74.286 E3.81217
G1 X167.55 Y75.039 E3.83842
G1 X167.709 Y75.813 E3.8647
G1 X167.79 Y76.598 E3.89095
G1 X167.8 Y77 E3.90432
G1 X167.8 Y143 E6.09949
G1 X167.76 Y143.789 E6.12577
G1 X167.641 Y144.569 E6.15201
G1 X167.443 Y145.334 E6.1783
G1 X167.169 Y146.074 E6.20454
G1 X166.821 Y146.783 E6.23081
G1 X166.403 Y147.454 E6.2571
G1 X165.92 Y148.078 E6.28335
G1 X165.377 Y148.651 E6.3096
G1 X164.778 Y149.166 E6.33588
G1 X164.13 Y149.617 E6.36214
G1 X163.439 Y150.001 E6.38843
G1 X162.714 Y150.313 E6.41468
G1 X161.961 Y150.55 E6.44094
G1 X161.187 Y150.709 E6.46722
G1 X160.402 Y150.79 E6.49347
G1 X160 Y150.8 E6.50684
G1 X60 Y150.8 E9.83286
G1 X59.211 Y150.76 E9.85913
G1 X58.431 Y150.641 E9.88537
G1 X57.666 Y150.443 E9.91166
G1 X56.926 Y150.169 E9.9379
G1 X56.217 Y149.821 E9.96417
G1 X55.546 Y149.403 E9.99046
G1 X54.922 Y148.92 E10.01671
G1 X54.349 Y148.377 E10.04297
G1 X53.834 Y147.778 E10.06924
G1 X53.383 Y147.13 E10.0955
G1 X52.999 Y146.439 E10.12179
G1 X52.687 Y145.714 E10.14804
G1 X52.45 Y144.961 E10.1743
G1 X52.291 Y144.187 E10.20058
G1 X52.21 Y143.402 E10.22683
G1 X52.2 Y143 E10.2402
G1 X52.2 Y77 E12.43537
G1 X52.24 Y76.211 E12.46165
G1 X52.359 Y75.431 E12.48789
G1 X52.557 Y74.666 E12.51417
G1 X52.831 Y73.926 E12.54042
G1 X53.179 Y73.217 E12.56669
G1 X53.597 Y72.546 E12.59298
G1 X54.08 Y71.922 E12.61923
G1 X54.623 Y71.349 E12.64548
G1 X55.222 Y70.834 E12.67176
G0 F6000 X55.611 Y71.042
G1 F600 X56.253 Y70.619 E12.69733
G1 X56.936 Y70.264 E12.72293
G1 X57.651 Y69.983 E12.74848
G1 X58.393 Y69.777 E12.77409
G1 X59.151 Y69.649 E12.79966
G1 X60 Y69.6 E12.82795
G1 X160 Y69.6 E16.15396
G1 X160.768 Y69.64 E16.17954
G1 X161.528 Y69.759 E16.20512
G1 X162.271 Y69.957 E16.2307
G1 X162.99 Y70.231 E16.25629
G1 X163.676 Y70.578 E16.28186
G1 X164.323 Y70.994 E16.30744
G1 X164.923 Y71.475 E16.33302
G1 X165.47 Y72.016 E16.35861
G1 X165.958 Y72.611 E16.3842
G1 X166.381 Y73.253 E16.40978
G1 X166.736 Y73.936 E16.43538
G1 X167.017 Y74.651 E16.46093
G1 X167.223 Y75.393 E16.48654
G1 X167.351 Y76.151 E16.51211
G1 X167.4 Y77 E16.54039
G1 X167.4 Y143 E18.73556
G1 X167.36 Y143.768 E18.76114
G1 X167.241 Y144.528 E18.78673
G1 X167.043 Y145.271 E18.8123
G1 X166.769 Y145.99 E18.83789
G1 X166.422 Y146.676 E18.86346
G1 X166.006 Y147.323 E18.88905
G1 X165.525 Y147.923 E18.91462
G1 X164.984 Y148.47 E18.94021
G1 X164.389 Y148.958 E18.96581
G1 X163.747 Y149.381 E18.99138
G1 X163.064 Y149.736 E19.01698
G1 X162.349 Y150.017 E19.04253
G1 X161.607 Y150.223 E19.06814
G1 X160.849 Y150.351 E19.09371
G1 X160 Y150.4 E19.122
G1 X60 Y150.4 E22.44801
G1 X59.232 Y150.36 E22.47359
G1 X58.472 Y150.241 E22.49917
G1 X57.729 Y150.043 E22.52475
G1 X57.01 Y149.769 E22.55034
G1 X56.324 Y149.422 E22.57591
G1 X55.677 Y149.006 E22.60149
G1 X55.077 Y148.525 E22.62707
G1 X54.53 Y147.984 E22.65266
G1 X54.042 Y147.389 E22.67825
G1 X53.619 Y146.747 E22.70383
G1 X53.264 Y146.064 E22.72943
G1 X52.983 Y145.349 E22.75498
G1 X52.777 Y144.607 E22.78059
G1 X52.649 Y143.849 E22.80616
G1 X52.6 Y143 E22.83444
G1 X52.6 Y77 E25.02961
G1 X52.64 Y76.232 E25.05519
G1 X52.759 Y75.472 E25.08078
G1 X52.957 Y74.729 E25.10635
G1 X53.231 Y74.01 E25.13194
G1 X53.578 Y73.324 E25.15751
G1 X53.994 Y72.677 E25.1831
G1 X54.475 Y72.077 E25.20867
G1 X55.016 Y71.53 E25.23426
G1 X55.611 Y71.042 E25.25986
G0 F6000 X55.998 Y71.257
G1 F600 X56.634 Y70.862 E25.28476
G1 X57.308 Y70.538 E25.30963
G1 X58.013 Y70.288 E25.33451
G1 X58.741 Y70.114 E25.35941
G1 X59.483 Y70.019 E25.38429
G1 X60 Y70 E25.40149
G1 X160 Y70 E28.72751
G1 X160.747 Y70.04 E28.75239
G1 X161.485 Y70.159 E28.77725
G1 X162.207 Y70.357 E28.80215
G1 X162.903 Y70.63 E28.82702
G1 X163.566 Y70.977 E28.85191
G1 X164.189 Y71.392 E28.8768
G1 X164.763 Y71.871 E28.90167
G1 X165.284 Y72.408 E28.92655
G1 X165.743 Y72.998 E28.95142
G1 X166.138 Y73.634 E28.97632
G1 X166.462 Y74.308 E29.00119
G1 X166.712 Y75.013 E29.02607
G1 X166.886 Y75.741 E29.05097
G1 X166.981 Y76.483 E29.07585
G1 X167 Y77 E29.09305
G1 X167 Y143 E31.28822
G1 X166.96 Y143.747 E31.3131
G1 X166.841 Y144.485 E31.33797
G1 X166.643 Y145.207 E31.36287
G1 X166.37 Y145.903 E31.38773
G1 X166.023 Y146.566 E31.41262
G1 X165.608 Y147.189 E31.43752
G1 X165.129 Y147.763 E31.46238
G1 X164.592 Y148.284 E31.48727
G1 X164.002 Y148.743 E31.51213
G1 X163.366 Y149.138 E31.53703
G1 X162.692 Y149.462 E31.56191
G1 X161.987 Y149.712 E31.58679
G1 X161.259 Y149.886 E31.61168
G1 X160.517 Y149.981 E31.63656
G1 X160 Y150 E31.65377
G1 X60 Y150 E34.97978
G1 X59.253 Y149.96 E35.00466
G1 X58.515 Y149.841 E35.02953
G1 X57.793 Y149.643 E35.05443
G1 X57.097 Y149.37 E35.07929
G1 X56.434 Y149.023 E35.10418
G1 X55.811 Y148.608 E35.12908
G1 X55.237 Y148.129 E35.15394
G1 X54.716 Y147.592 E35.17883
G1 X54.257 Y147.002 E35.20369
G1 X53.862 Y146.366 E35.22859
G1 X53.538 Y145.692 E35.25347
G1 X53.288 Y144.987 E35.27835
G1 X53.114 Y144.259 E35.30324
G1 X53.019 Y143.517 E35.32812
G1 X53 Y143 E35.34533
G1 X53 Y77 E37.5405
G1 X53.04 Y76.253 E37.56538
G1 X53.159 Y75.515 E37.59024
G1 X53.357 Y74.793 E37.61514
G1 X53.63 Y74.097 E37.64001
G1 X53.977 Y73.434 E37.6649
G1 X54.392 Y72.811 E37.68979
G1 X54.871 Y72.237 E37.71466
G1 X55.408 Y71.716 E37.73955
G1 X55.998 Y71.257 E37.76441
G0 F6000 X55.799 Y71.909
G1 F600 X56.384 Y71.479 E37.78856
G1 X57.013 Y71.115 E37.81273
G1 X57.678 Y70.822 E37.8369
G1 X58.371 Y70.604 E37.86106
G1 X59.083 Y70.464 E37.88519
G1 X60 Y70.4 E37.91577
G1 X160 Y70.4 E41.24178
G1 X160.725 Y70.44 E41.26593
G1 X161.442 Y70.559 E41.29011
G1 X162.141 Y70.757 E41.31427
G1 X162.814 Y71.03 E41.33842
G1 X163.453 Y71.375 E41.36258
G1 X164.05 Y71.789 E41.38674
G1 X164.598 Y72.265 E41.41088
G1 X165.091 Y72.799 E41.43506
G1 X165.521 Y73.384 E41.4592
G1 X165.885 Y74.013 E41.48338
G1 X166.178 Y74.678 E41.50755
G1 X166.396 Y75.371 E41.53171
G1 X166.536 Y76.083 E41.55584
G1 X166.6 Y77 E41.58642
G1 X166.6 Y143 E43.78159
G1 X166.56 Y143.725 E43.80574
G1 X166.441 Y144.442 E43.82991
G1 X166.243 Y145.141 E43.85407
G1 X165.97 Y145.814 E43.87823
G1 X165.625 Y146.453 E43.90238
G1 X165.211 Y147.05 E43.92655
G1 X164.735 Y147.598 E43.95069
G1 X164.201 Y148.091 E43.97486
G1 X163.616 Y148.521 E43.99901
G1 X162.987 Y148.885 E44.02318
G1 X162.322 Y149.178 E44.04735
G1 X161.629 Y149.396 E44.07151
G1 X160.917 Y149.536 E44.09565
G1 X160 Y149.6 E44.12622
G1 X60 Y149.6 E47.45223
G1 X59.275 Y149.56 E47.47638
G1 X58.558 Y149.441 E47.50056
G1 X57.859 Y149.243 E47.52472
G1 X57.186 Y148.97 E47.54888
G1 X56.547 Y148.625 E47.57303
G1 X55.95 Y148.211 E47.59719
G1 X55.402 Y147.735 E47.62134
G1 X54.909 Y147.201 E47.64551
G1 X54.479 Y146.616 E47.66966
G1 X54.115 Y145.987 E47.69383
G1 X53.822 Y145.322 E47.718
G1 X53.604 Y144.629 E47.74216
G1 X53.464 Y143.917 E47.7663
G1 X53.4 Y143 E47.79687
G1 X53.4 Y77 E49.99204
G1 X53.44 Y76.275 E50.01619
G1 X53.559 Y75.558 E50.04036
G1 X53.757 Y74.859 E50.06453
G1 X54.03 Y74.186 E50.08868
G1 X54.375 Y73.547 E50.11283
G1 X54.789 Y72.95 E50.137
G1 X55.265 Y72.402 E50.16114
G1 X55.799 Y71.909 E50.18531
G0 F6000 X56.189 Y72.109
G1 F600 X56.768 Y71.709 E50.20872
G1 X57.389 Y71.377 E50.23214
G1 X58.043 Y71.117 E50.25555
G1 X58.723 Y70.933 E50.27898
G1 X59.419 Y70.827 E50.30239
G1 X60 Y70.8 E50.32174
G1 X160 Y70.8 E53.64775
G1 X160.703 Y70.84 E53.67117
G1 X161.397 Y70.959 E53.69459
G1 X162.072 Y71.157 E53.71799
G1 X162.721 Y71.429 E53.74139
G1 X163.335 Y71.774 E53.76482
G1 X163.906 Y72.185 E53.78822
G1 X164.427 Y72.659 E53.81164
G1 X164.891 Y73.189 E53.83507
G1 X165.291 Y73.768 E53.85848
G1 X165.623 Y74.389 E53.8819
G1 X165.883 Y75.043 E53.90531
G1 X166.067 Y75.723 E53.92874
G1 X166.173 Y76.419 E53.95216
G1 X166.2 Y77 E53.9715
G1 X166.2 Y143 E56.16667
G1 X166.16 Y143.703 E56.19009
G1 X166.041 Y144.397 E56.21351
G1 X165.843 Y145.072 E56.2369
G1 X165.571 Y145.721 E56.26031
G1 X165.226 Y146.335 E56.28373
G1 X164.815 Y146.906 E56.30713
G1 X164.341 Y147.427 E56.33056
G1 X163.811 Y147.891 E56.35399
G1 X163.232 Y148.291 E56.3774
G1 X162.611 Y148.623 E56.40082
G1 X161.957 Y148.883 E56.42423
G1 X161.277 Y149.067 E56.44766
G1 X160.581 Y149.173 E56.47107
G1 X160 Y149.2 E56.49042
G1 X60 Y149.2 E59.81643
G1 X59.297 Y149.16 E59.83985
G1 X58.603 Y149.041 E59.86327
G1 X57.928 Y148.843 E59.88667
G1 X57.279 Y148.571 E59.91007
G1 X56.665 Y148.226 E59.9335
G1 X56.094 Y147.815 E59.95689
G1 X55.573 Y147.341 E59.98032
G1 X55.109 Y146.811 E60.00375
G1 X54.709 Y146.232 E60.02716
G1 X54.377 Y145.611 E60.05058
G1 X54.117 Y144.957 E60.07399
G1 X53.933 Y144.277 E60.09742
G1 X53.827 Y143.581 E60.12083
G1 X53.8 Y143 E60.14018
G1 X53.8 Y77 E62.33535
G1 X53.84 Y76.297 E62.35877
G1 X53.959 Y75.603 E62.38219
G1 X54.157 Y74.928 E62.40558
G1 X54.429 Y74.279 E62.42899
G1 X54.774 Y73.665 E62.45241
G1 X55.185 Y73.094 E62.47581
G1 X55.659 Y72.573 E62.49924
G1 X56.189 Y72.109 E62.52267
G0 F6000 X56.578 Y72.317
G1 F600 X57.15 Y71.948 E62.54531
G1 X57.762 Y71.649 E62.56796
G1 X58.404 Y71.424 E62.59059
G1 X59.069 Y71.275 E62.61325
G1 X60 Y71.2 E62.64432
G1 X160 Y71.2 E65.97033
G1 X160.68 Y71.24 E65.99299
G1 X161.35 Y71.359 E66.01562
G1 X162.002 Y71.556 E66.03828
G1 X162.626 Y71.828 E66.06092
G1 X163.214 Y72.172 E66.08357
G1 X163.758 Y72.582 E66.10623
G1 X164.249 Y73.053 E66.12886
G1 X164.683 Y73.578 E66.15152
G1 X165.052 Y74.15 E66.17416
G1 X165.351 Y74.762 E66.19681
G1 X165.576 Y75.404 E66.21944
G1 X165.725 Y76.069 E66.2421
G1 X165.8 Y77 E66.27317
G1 X165.8 Y143 E68.46834
G1 X165.76 Y143.68 E68.49099
G1 X165.641 Y144.35 E68.51363
G1 X165.444 Y145.002 E68.53628
G1 X165.172 Y145.626 E68.55892
G1 X164.828 Y146.214 E68.58158
G1 X164.418 Y146.758 E68.60424
G1 X163.947 Y147.249 E68.62687
G1 X163.422 Y147.683 E68.64952
G1 X162.85 Y148.052 E68.67216
G1 X162.238 Y148.351 E68.69482
G1 X161.596 Y148.576 E68.71744
G1 X160.931 Y148.725 E68.74011
G1 X160 Y148.8 E68.77117
G1 X60 Y148.8 E72.09719
G1 X59.32 Y148.76 E72.11984
G1 X58.65 Y148.641 E72.14248
G1 X57.998 Y148.444 E72.16513
G1 X57.374 Y148.172 E72.18777
G1 X56.786 Y147.828 E72.21043
G1 X56.242 Y147.418 E72.23309
G1 X55.751 Y146.947 E72.25572
G1 X55.317 Y146.422 E72.27837
G1 X54.948 Y145.85 E72.30101
G1 X54.649 Y145.238 E72.32367
G1 X54.424 Y144.596 E72.34629
G1 X54.275 Y143.931 E72.36896
G1 X54.2 Y143 E72.40002
G1 X54.2 Y77 E74.59519
G1 X54.24 Y76.32 E74.61785
G1 X54.359 Y75.65 E74.64048
G1 X54.556 Y74.998 E74.66314
G1 X54.828 Y74.374 E74.68578
G1 X55.172 Y73.786 E74.70843
G1 X55.582 Y73.242 E74.73109
G1 X56.053 Y72.751 E74.75372
G1 X56.578 Y72.317 E74.77638
G0 F6000 X56.445 Y72.935
G1 F600 X56.965 Y72.534 E74.79822
G1 X57.529 Y72.198 E74.82005
G1 X58.131 Y71.934 E74.84192
G1 X58.76 Y71.744 E74.86377
G1 X59.407 Y71.633 E74.8856
G1 X60 Y71.6 E74.90536
G1 X160 Y71.6 E78.23137
G1 X160.656 Y71.64 E78.25323
G1 X161.302 Y71.759 E78.27508
G1 X161.929 Y71.956 E78.29694
G1 X162.527 Y72.228 E78.31879
G1 X163.088 Y72.57 E78.34064
G1 X163.603 Y72.978 E78.36249
G1 X164.065 Y73.445 E78.38434
G1 X164.466 Y73.965 E78.40618
G1 X164.802 Y74.529 E78.42802
G1 X165.066 Y75.131 E78.44988
G1 X165.256 Y75.76 E78.47174
G1 X165.367 Y76.407 E78.49357
G1 X165.4 Y77 E78.51332
G1 X165.4 Y143 E80.70849
G1 X165.36 Y143.656 E80.73035
G1 X165.241 Y144.302 E80.7522
G1 X165.044 Y144.929 E80.77406
G1 X164.772 Y145.527 E80.79591
G1 X164.43 Y146.088 E80.81776
G1 X164.022 Y146.603 E80.83961
G1 X163.555 Y147.065 E80.86146
G1 X163.035 Y147.466 E80.8833
G1 X162.471 Y147.802 E80.90514
G1 X161.869 Y148.066 E80.927
G1 X161.24 Y148.256 E80.94886
G1 X160.593 Y148.367 E80.97069
G1 X160 Y148.4 E80.99044
G1 X60 Y148.4 E84.31646
G1 X59.344 Y148.36 E84.33832
G1 X58.698 Y148.241 E84.36016
G1 X58.071 Y148.044 E84.38202
G1 X57.473 Y147.772 E84.40387
G1 X56.912 Y147.43 E84.42573
G1 X56.397 Y147.022 E84.44758
G1 X55.935 Y146.555 E84.46943
G1 X55.534 Y146.035 E84.49127
G1 X55.198 Y145.471 E84.5131
G1 X54.934 Y144.869 E84.53497
G1 X54.744 Y144.24 E84.55682
G1 X54.633 Y143.593 E84.57866
G1 X54.6 Y143 E84.59841
G1 X54.6 Y77 E86.79358
G1 X54.64 Y76.344 E86.81544
G1 X54.759 Y75.698 E86.83728
G1 X54.956 Y75.071 E86.85914
G1 X55.228 Y74.473 E86.88099
G1 X55.57 Y73.912 E86.90285
G1 X55.978 Y73.397 E86.9247
G1 X56.445 Y72.935 E86.94655
G0 F6000 X56.836 Y73.129
G1 F600 X57.35 Y72.76 E86.96759
G1 X57.906 Y72.46 E86.98861
G1 X58.495 Y72.232 E87.00961
G1 X59.109 Y72.08 E87.03065
G1 X60 Y72 E87.06041
G1 X160 Y72 E90.38642
G1 X160.631 Y72.04 E90.40745
G1 X161.252 Y72.159 E90.42848
G1 X161.852 Y72.356 E90.44948
G1 X162.424 Y72.627 E90.47053
G1 X162.956 Y72.967 E90.49153
G1 X163.441 Y73.373 E90.51257
G1 X163.871 Y73.836 E90.53359
G1 X164.24 Y74.35 E90.55463
G1 X164.54 Y74.906 E90.57565
G1 X164.768 Y75.495 E90.59665
G1 X164.92 Y76.109 E90.61769
G1 X165 Y77 E90.64744
G1 X165 Y143 E92.84261
G1 X164.96 Y143.631 E92.86364
G1 X164.841 Y144.252 E92.88467
G1 X164.644 Y144.852 E92.90568
G1 X164.373 Y145.424 E92.92673
G1 X164.033 Y145.956 E92.94773
G1 X163.627 Y146.441 E92.96877
G1 X163.164 Y146.871 E92.98978
G1 X162.65 Y147.24 E93.01083
G1 X162.094 Y147.54 E93.03184
G1 X161.505 Y147.768 E93.05285
G1 X160.891 Y147.92 E93.07388
G1 X160 Y148 E93.10364
G1 X60 Y148 E96.42965
G1 X59.369 Y147.96 E96.45068
G1 X58.748 Y147.841 E96.47171
G1 X58.148 Y147.644 E96.49272
G1 X57.576 Y147.373 E96.51377
G1 X57.044 Y147.033 E96.53477
G1 X56.559 Y146.627 E96.5558
G1 X56.129 Y146.164 E96.57682
G1 X55.76 Y145.65 E96.59787
G1 X55.46 Y145.094 E96.61888
G1 X55.232 Y144.505 E96.63989
G1 X55.08 Y143.891 E96.66092
G1 X55 Y143 E96.69068
G1 X55 Y77 E98.88585
G1 X55.04 Y76.369 E98.90688
G1 X55.159 Y75.748 E98.92791
G1 X55.356 Y75.148 E98.94891
G1 X55.627 Y74.576 E98.96996
G1 X55.967 Y74.044 E98.99096
G1 X56.373 Y73.559 E99.012
G1 X56.836 Y73.129 E99.03302
G0 F6000 X57.225 Y73.331
G1 F600 X57.732 Y72.998 E99.05319
G1 X58.278 Y72.734 E99.07336
G1 X58.854 Y72.545 E99.09352
G1 X59.45 Y72.433 E99.11369
G1 X60 Y72.4 E99.13202
G1 X160 Y72.4 E102.45803
G1 X160.605 Y72.44 E102.4782
G1 X161.199 Y72.559 E102.49835
G1 X161.773 Y72.755 E102.51852
G1 X162.316 Y73.026 E102.53871
G1 X162.819 Y73.365 E102.55888
G1 X163.272 Y73.767 E102.57903
G1 X163.669 Y74.225 E102.59919
G1 X164.002 Y74.732 E102.61936
G1 X164.266 Y75.278 E102.63953
G1 X164.455 Y75.854 E102.65969
G1 X164.567 Y76.45 E102.67986
G1 X164.6 Y77 E102.69819
G1 X164.6 Y143 E104.89336
G1 X164.56 Y143.605 E104.91353
G1 X164.441 Y144.199 E104.93367
G1 X164.245 Y144.773 E104.95385
G1 X163.974 Y145.316 E104.97403
G1 X163.635 Y145.819 E104.99421
G1 X163.233 Y146.272 E105.01435
G1 X162.775 Y146.669 E105.03451
G1 X162.268 Y147.002 E105.05469
G1 X161.722 Y147.266 E105.07486
G1 X161.146 Y147.455 E105.09502
