;FLAVOR:Marlin
;TIME:701
;Filament used: 0.195708m
;Layer height: 0.15
;MINX:82.046
;MINY:93.419
;MINZ:0.2
;MAXX:137.944
;MAXY:126.58
;MAXZ:0.95
;Generated with Cura_SteamEngine 4.11.0
M140 S65
M105
M190 S65
M104 S210
M105
M109 S210
M82 ;absolute extrusion mode
M201 X500.00 Y500.00 Z100.00 E5000.00 ;Setup machine max acceleration
M203 X500.00 Y500.00 Z10.00 E50.00 ;Setup machine max feedrate
M204 P500.00 R1000.00 T500.00 ;Setup Print/Retract/Travel acceleration
M205 X8.00 Y8.00 Z0.40 E5.00 ;Setup Jerk
M220 S100 ;Reset Feedrate
M221 S100 ;Reset Flowrate

G28 ;Home
G29 ;Auto Bed Leveling
M420 S1 Z2 ;Enable ABL using saved Mesh and Fade Height

G92 E0 ;Reset Extruder
G1 Z2.0 F3000 ;Move Z Axis up
G1 X10.1 Y20 Z0.28 F5000.0 ;Move to start position
G1 X10.1 Y200.0 Z0.28 F1500.0 E15 ;Draw the first line
G1 X10.4 Y200.0 Z0.28 F5000.0 ;Move to side a little
G1 X10.4 Y20 Z0.28 F1500.0 E30 ;Draw the second line
G92 E0 ;Reset Extruder
G1 Z2.0 F3000 ;Move Z Axis up
G92 E0
G92 E0
G1 F2700 E-5
;LAYER_COUNT:6
;LAYER:0
M107
G0 F6000 X85.414 Y105.139 Z0.2
;TYPE:SKIRT
G1 F2700 E0
G1 F600 X85.596 Y105.005 E0.00752
G1 X86.255 Y104.569 E0.0338
G1 X86.955 Y104.203 E0.06007
G1 X87.688 Y103.909 E0.08634
G1 X88.588 Y103.659 E0.11741
G1 X88.901 Y103.592 E0.12805
G1 X89.681 Y103.466 E0.15433
G1 X90.469 Y103.419 E0.18059
G1 X91.258 Y103.453 E0.20685
G1 X91.899 Y103.539 E0.22836
G1 X91.965 Y103.551 E0.2306
G1 X92.261 Y103.506 E0.24055
G1 X93.047 Y103.428 E0.26682
G1 X93.836 Y103.43 E0.29307
G1 X94.498 Y103.493 E0.31518
G1 X94.601 Y103.507 E0.31864
G1 X94.601 Y102.107 E0.36521
G1 X94.614 Y101.65 E0.38041
G1 X94.626 Y101.446 E0.38721
G1 X94.713 Y100.661 E0.41348
G1 X94.792 Y100.241 E0.42769
G1 X94.835 Y100.044 E0.4344
G1 X95.043 Y99.282 E0.46067
G1 X95.326 Y98.544 E0.48696
G1 X95.652 Y97.894 E0.51114
G1 X95.805 Y97.621 E0.52155
G1 X96.225 Y96.952 E0.54783
G1 X96.711 Y96.33 E0.57408
G1 X97.257 Y95.759 E0.60036
G1 X97.859 Y95.247 E0.62664
G1 X98.699 Y94.685 E0.66026
G1 X98.97 Y94.528 E0.67067
G1 X99.672 Y94.167 E0.69693
G1 X100.408 Y93.879 E0.72322
G1 X101.179 Y93.665 E0.74983
G1 X101.367 Y93.623 E0.75624
G1 X102.146 Y93.49 E0.78252
G1 X102.556 Y93.452 E0.79622
G1 X102.799 Y93.436 E0.80431
G1 X103.311 Y93.419 E0.82135
G1 X105.61 Y93.419 E0.89782
G1 X106.072 Y93.426 E0.91319
G1 X106.282 Y93.433 E0.92017
G1 X106.586 Y93.447 E0.9303
G1 X106.954 Y93.473 E0.94257
G1 X107.36 Y93.511 E0.95613
G1 X107.92 Y93.584 E0.97491
G1 X108.177 Y93.627 E0.98358
G1 X108.754 Y93.746 E1.00317
G1 X108.906 Y93.762 E1.00826
G1 X109.269 Y93.68 E1.02064
G1 X109.999 Y93.551 E1.04529
G1 X110.398 Y93.5 E1.05867
G1 X111.054 Y93.444 E1.08057
G1 X111.475 Y93.426 E1.09458
G1 X112.127 Y93.426 E1.11627
G1 X112.542 Y93.443 E1.13008
G1 X113.171 Y93.494 E1.15107
G1 X113.53 Y93.538 E1.1631
G1 X114.037 Y93.466 E1.18014
G1 X114.548 Y93.436 E1.19716
G1 X114.828 Y93.429 E1.20648
G1 X115.617 Y93.45 E1.23273
G1 X116.401 Y93.55 E1.25901
G1 X117.174 Y93.742 E1.28551
G1 X117.632 Y93.616 E1.30131
G1 X118.41 Y93.483 E1.32756
G1 X119.327 Y93.429 E1.35811
G1 X119.59 Y93.429 E1.36686
G1 X120.379 Y93.469 E1.39313
G1 X121.159 Y93.588 E1.41938
G1 X122.123 Y93.852 E1.45262
G1 X122.356 Y93.932 E1.46081
G1 X123.089 Y94.226 E1.48708
G1 X123.788 Y94.592 E1.51332
G1 X124.656 Y95.187 E1.54832
G1 X124.827 Y95.322 E1.55557
G1 X125.421 Y95.842 E1.58183
G1 X125.96 Y96.419 E1.60809
G1 X126.438 Y97.048 E1.63437
G1 X126.707 Y97.472 E1.65107
G1 X126.82 Y97.663 E1.65845
G1 X127.187 Y98.362 E1.68471
G1 X127.482 Y99.095 E1.71099
G1 X127.701 Y99.854 E1.73726
G1 X127.8 Y100.347 E1.75399
G1 X127.838 Y100.574 E1.76164
G1 X127.929 Y101.359 E1.78792
G1 X127.94 Y102.148 E1.81417
G1 X127.862 Y102.997 E1.84253
G1 X127.832 Y103.201 E1.84938
G1 X127.782 Y103.454 E1.85796
G1 X127.949 Y103.464 E1.86353
G1 X128.493 Y103.541 E1.8818
G1 X128.783 Y103.593 E1.8916
G1 X129.552 Y103.772 E1.91786
G1 X130.299 Y104.027 E1.94411
G1 X131.017 Y104.357 E1.9704
G1 X131.78 Y104.813 E1.99996
G1 X132.031 Y104.983 E2.01004
G1 X132.662 Y105.458 E2.03631
G1 X133.241 Y105.995 E2.06258
G1 X133.763 Y106.587 E2.08883
G1 X134.371 Y107.471 E2.12451
G1 X134.52 Y107.723 E2.13425
G1 X134.887 Y108.422 E2.16051
G1 X135.182 Y109.155 E2.18679
G1 X135.391 Y109.874 E2.21169
G1 X135.438 Y110.07 E2.2184
G1 X135.583 Y110.846 E2.24465
G1 X135.634 Y111.35 E2.2615
G1 X135.65 Y111.581 E2.2692
G1 X135.668 Y112.091 E2.28618
G1 X136.346 Y113.116 E2.32705
G1 X136.464 Y113.299 E2.33429
G1 X136.694 Y113.679 E2.34907
G1 X136.842 Y113.94 E2.35905
G1 X137.196 Y114.645 E2.38529
G1 X137.454 Y115.312 E2.40907
G1 X137.541 Y115.572 E2.41819
G1 X137.753 Y116.332 E2.44443
G1 X137.888 Y117.111 E2.47073
G1 X137.944 Y118.047 E2.50192
G1 X137.944 Y118.287 E2.5099
G1 X137.904 Y119.076 E2.53617
G1 X137.785 Y119.856 E2.56242
G1 X137.587 Y120.621 E2.5887
G1 X137.327 Y121.329 E2.61379
G1 X137.244 Y121.525 E2.62087
G1 X136.899 Y122.235 E2.64712
G1 X136.485 Y122.907 E2.67337
G1 X136.004 Y123.534 E2.69966
G1 X135.592 Y123.983 E2.71992
G1 X135.41 Y124.166 E2.72851
G1 X134.825 Y124.697 E2.75479
G1 X134.19 Y125.167 E2.78106
G1 X133.51 Y125.569 E2.80733
G1 X132.963 Y125.83 E2.82749
G1 X132.733 Y125.929 E2.83582
G1 X131.993 Y126.205 E2.86209
G1 X131.228 Y126.403 E2.88837
G1 X130.448 Y126.524 E2.91463
G1 X129.814 Y126.563 E2.93575
G1 X129.53 Y126.569 E2.9452
G1 X128.74 Y126.546 E2.97149
G1 X127.957 Y126.443 E2.99775
G1 X127.134 Y126.237 E3.02597
G1 X126.588 Y126.382 E3.04476
G1 X126.287 Y126.44 E3.05496
G1 X125.505 Y126.55 E3.08122
G1 X124.716 Y126.58 E3.10748
G1 X123.649 Y126.494 E3.14309
G1 X123.41 Y126.458 E3.15113
G1 X122.852 Y126.345 E3.17006
G1 X122.72 Y126.352 E3.17446
G1 X122.251 Y126.363 E3.19006
G1 X122.068 Y126.365 E3.19615
G1 X119.606 Y126.365 E3.27804
G1 X118.908 Y126.333 E3.30128
G1 X118.796 Y126.342 E3.30501
G1 X118.198 Y126.365 E3.32492
G1 X114.209 Y126.364 E3.45759
G1 X113.551 Y126.325 E3.47951
G1 X113.281 Y126.346 E3.48852
G1 X112.73 Y126.365 E3.50686
G1 X107.936 Y126.365 E3.66631
G1 X107.484 Y126.344 E3.68136
G1 X106.806 Y126.459 E3.70423
G1 X106.447 Y126.504 E3.71626
G1 X105.793 Y126.559 E3.73809
G1 X105.399 Y126.575 E3.75121
G1 X104.766 Y126.575 E3.77226
G1 X104.348 Y126.558 E3.78618
G1 X103.71 Y126.505 E3.80747
G1 X103.465 Y126.475 E3.81568
G1 X103.148 Y126.524 E3.82635
G1 X102.514 Y126.563 E3.84747
G1 X102.23 Y126.569 E3.85692
G1 X101.44 Y126.546 E3.88321
G1 X100.657 Y126.443 E3.90948
G1 X99.834 Y126.237 E3.93769
G1 X99.288 Y126.382 E3.95648
G1 X98.987 Y126.44 E3.96668
G1 X98.205 Y126.55 E3.99294
G1 X97.416 Y126.58 E4.01921
G1 X96.349 Y126.494 E4.05481
G1 X96.11 Y126.458 E4.06285
G1 X95.647 Y126.364 E4.07856
G1 X95.262 Y126.358 E4.09137
G1 X95.014 Y126.348 E4.09962
G1 X93.846 Y126.212 E4.13873
G1 X93.505 Y126.146 E4.15029
G1 X93.432 Y126.128 E4.15279
G1 X93.027 Y126.219 E4.16659
G1 X92.318 Y126.308 E4.19036
G1 X91.839 Y126.344 E4.20634
G1 X91.701 Y126.352 E4.21093
G1 X91.25 Y126.365 E4.22594
G1 X90.768 Y126.365 E4.24197
G1 X90.011 Y126.328 E4.26718
G1 X89.693 Y126.297 E4.27781
G1 X88.912 Y126.181 E4.30407
G1 X88.147 Y125.986 E4.33033
G1 X87.646 Y125.813 E4.34795
G1 X87.293 Y125.677 E4.36054
G1 X86.571 Y125.356 E4.38682
G1 X85.886 Y124.964 E4.41307
G1 X85.244 Y124.504 E4.43933
G1 X84.651 Y123.982 E4.46561
G1 X83.911 Y123.149 E4.50267
G1 X83.719 Y122.899 E4.51315
G1 X83.27 Y122.249 E4.53943
G1 X82.89 Y121.557 E4.56569
G1 X82.581 Y120.83 E4.59196
G1 X82.366 Y120.149 E4.61571
G1 X82.323 Y119.987 E4.62129
G1 X82.159 Y119.215 E4.64754
G1 X82.082 Y118.542 E4.67007
G1 X82.066 Y118.318 E4.67754
G1 X82.046 Y117.761 E4.69608
G1 X82.047 Y112.025 E4.88686
G1 X82.123 Y110.942 E4.92296
G1 X82.172 Y110.593 E4.93469
G1 X82.321 Y109.817 E4.96097
G1 X82.548 Y109.061 E4.98722
G1 X82.85 Y108.331 E5.0135
G1 X83.08 Y107.884 E5.03022
G1 X83.223 Y107.627 E5.04
G1 X83.641 Y106.958 E5.06624
G1 X84.125 Y106.334 E5.0925
G1 X84.67 Y105.762 E5.11878
G1 X85.414 Y105.139 E5.15106
G0 F6000 X85.652 Y105.461
G1 F600 X85.834 Y105.327 E5.15857
G1 X86.476 Y104.904 E5.18414
G1 X87.159 Y104.549 E5.20975
G1 X87.874 Y104.268 E5.2353
G1 X88.672 Y104.05 E5.26281
G1 X88.985 Y103.983 E5.27346
G1 X89.745 Y103.861 E5.29906
G1 X90.513 Y103.819 E5.32464
G1 X91.281 Y103.857 E5.35022
G1 X91.829 Y103.933 E5.36862
G1 X92.015 Y103.948 E5.37482
G1 X92.32 Y103.902 E5.38508
G1 X93.086 Y103.827 E5.41068
G1 X93.855 Y103.832 E5.43626
G1 X94.443 Y103.89 E5.45591
G1 X94.745 Y103.932 E5.46605
G1 X95.001 Y103.944 E5.47458
G1 X95.001 Y102.107 E5.53567
G1 X95.014 Y101.673 E5.55012
G1 X95.026 Y101.469 E5.55691
G1 X95.111 Y100.705 E5.58248
G1 X95.183 Y100.326 E5.59531
G1 X95.226 Y100.129 E5.60202
G1 X95.429 Y99.387 E5.6276
G1 X95.708 Y98.67 E5.65319
G1 X96.001 Y98.089 E5.67484
G1 X96.154 Y97.816 E5.68524
G1 X96.564 Y97.166 E5.71081
G1 X97.04 Y96.561 E5.73641
G1 X97.576 Y96.009 E5.762
G1 X98.166 Y95.516 E5.78757
G1 X98.899 Y95.031 E5.81681
G1 X99.17 Y94.874 E5.82722
G1 X99.855 Y94.523 E5.85282
G1 X100.572 Y94.246 E5.87839
G1 X101.267 Y94.055 E5.90236
G1 X101.455 Y94.013 E5.90877
G1 X102.582 Y93.851 E5.94664
G1 X102.825 Y93.835 E5.95474
G1 X103.311 Y93.819 E5.97091
G1 X105.61 Y93.819 E6.04737
G1 X106.065 Y93.826 E6.06251
G1 X106.567 Y93.847 E6.07922
G1 X106.917 Y93.871 E6.09089
G1 X107.323 Y93.909 E6.10445
G1 X107.854 Y93.978 E6.12226
G1 X108.111 Y94.021 E6.13093
G1 X108.659 Y94.134 E6.14954
G1 X108.871 Y94.186 E6.1568
G1 X108.994 Y94.152 E6.16104
G1 X109.357 Y94.07 E6.17342
G1 X110.05 Y93.948 E6.19682
G1 X110.449 Y93.897 E6.2102
G1 X111.071 Y93.844 E6.23097
G1 X111.492 Y93.826 E6.24498
G1 X112.111 Y93.825 E6.26557
G1 X112.526 Y93.842 E6.27938
G1 X113.122 Y93.891 E6.29927
G1 X113.526 Y93.941 E6.31281
G1 X114.133 Y93.859 E6.33319
G1 X114.558 Y93.836 E6.34734
G1 X114.838 Y93.829 E6.35666
G1 X115.607 Y93.85 E6.38224
G1 X116.369 Y93.951 E6.40781
G1 X117.181 Y94.155 E6.43566
G1 X117.738 Y94.002 E6.45487
G1 X118.497 Y93.876 E6.48046
G1 X119.327 Y93.829 E6.50811
G1 X119.59 Y93.829 E6.51686
G1 X120.358 Y93.869 E6.54243
G1 X121.118 Y93.988 E6.56802
G1 X121.993 Y94.23 E6.59822
G1 X122.226 Y94.31 E6.60641
G1 X122.94 Y94.597 E6.632
G1 X123.619 Y94.957 E6.65757
G1 X124.408 Y95.501 E6.68944
G1 X124.579 Y95.636 E6.69669
G1 X125.157 Y96.143 E6.72226
G1 X125.68 Y96.708 E6.74787
G1 X126.141 Y97.324 E6.77346
G1 X126.363 Y97.676 E6.7873
G1 X126.476 Y97.867 E6.79468
G1 X126.833 Y98.548 E6.82025
G1 X127.117 Y99.263 E6.84584
G1 X127.325 Y100.004 E6.87144
G1 X127.405 Y100.413 E6.8853
G1 X127.443 Y100.64 E6.89296
G1 X127.531 Y101.404 E6.91853
G1 X127.538 Y102.174 E6.94415
G1 X127.466 Y102.939 E6.9697
G1 X127.436 Y103.143 E6.97656
G1 X127.299 Y103.825 E6.9997
G1 X127.966 Y103.868 E7.02193
G1 X128.422 Y103.935 E7.03726
G1 X128.712 Y103.987 E7.04706
G1 X129.461 Y104.162 E7.07264
G1 X130.188 Y104.414 E7.09823
G1 X130.885 Y104.74 E7.12382
G1 X131.556 Y105.144 E7.14987
G1 X131.807 Y105.314 E7.15996
G1 X132.42 Y105.778 E7.18553
G1 X132.982 Y106.303 E7.21111
G1 X133.487 Y106.883 E7.23669
G1 X134.027 Y107.675 E7.26857
G1 X134.176 Y107.927 E7.2783
G1 X134.532 Y108.608 E7.30386
G1 X134.816 Y109.323 E7.32945
G1 X135.002 Y109.967 E7.35175
G1 X135.049 Y110.163 E7.35845
G1 X135.189 Y110.92 E7.38405
G1 X135.235 Y111.378 E7.39936
G1 X135.251 Y111.609 E7.40707
G1 X135.269 Y112.12 E7.42407
G1 X135.269 Y112.214 E7.4272
G1 X136.01 Y113.333 E7.47184
G1 X136.128 Y113.516 E7.47908
G1 X136.346 Y113.876 E7.49308
G1 X136.494 Y114.137 E7.50306
G1 X136.838 Y114.825 E7.52864
G1 X137.075 Y115.439 E7.55053
G1 X137.162 Y115.699 E7.55965
G1 X137.367 Y116.44 E7.58522
G1 X137.495 Y117.198 E7.61079
G1 X137.544 Y118.047 E7.63907
G1 X137.544 Y118.287 E7.64706
G1 X137.504 Y119.055 E7.67264
G1 X137.385 Y119.815 E7.69822
G1 X137.187 Y120.558 E7.7238
G1 X136.958 Y121.173 E7.74562
G1 X136.875 Y121.369 E7.7527
G1 X136.539 Y122.06 E7.77826
G1 X136.133 Y122.713 E7.80383
G1 X135.661 Y123.321 E7.82943
G1 X135.308 Y123.701 E7.84668
G1 X135.126 Y123.884 E7.85527
G1 X134.556 Y124.401 E7.88086
G1 X133.935 Y124.855 E7.90645
G1 X133.271 Y125.243 E7.93203
G1 X132.805 Y125.463 E7.94917
G1 X132.575 Y125.562 E7.9575
G1 X131.853 Y125.829 E7.9831
G1 X131.108 Y126.02 E8.00868
G1 X130.347 Y126.132 E8.03426
G1 X129.805 Y126.163 E8.05232
G1 X129.521 Y126.169 E8.06177
G1 X128.753 Y126.146 E8.08732
G1 X127.99 Y126.042 E8.11293
G1 X127.137 Y125.826 E8.1422
G1 X126.512 Y125.989 E8.16368
G1 X126.211 Y126.047 E8.17388
G1 X125.449 Y126.153 E8.19947
G1 X124.681 Y126.18 E8.22503
G1 X123.709 Y126.098 E8.25747
G1 X123.47 Y126.062 E8.26551
G1 X122.882 Y125.943 E8.28546
G1 X122.711 Y125.952 E8.29116
G1 X122.242 Y125.963 E8.30676
G1 X122.068 Y125.965 E8.31255
G1 X119.606 Y125.965 E8.39444
G1 X118.936 Y125.935 E8.41674
G1 X118.198 Y125.965 E8.44131
G1 X114.209 Y125.964 E8.57398
G1 X113.542 Y125.924 E8.59621
G1 X113.253 Y125.947 E8.60585
G1 X112.73 Y125.965 E8.62326
G1 X107.936 Y125.965 E8.7827
G1 X107.452 Y125.942 E8.79882
G1 X107.387 Y125.956 E8.80103
G1 X106.756 Y126.063 E8.82232
G1 X106.397 Y126.108 E8.83435
G1 X105.777 Y126.159 E8.85504
G1 X105.383 Y126.175 E8.86816
G1 X104.782 Y126.175 E8.88815
G1 X104.364 Y126.158 E8.90206
G1 X103.759 Y126.108 E8.92225
G1 X103.46 Y126.071 E8.93227
G1 X103.047 Y126.132 E8.94616
G1 X102.505 Y126.163 E8.96422
G1 X102.221 Y126.169 E8.97366
G1 X101.453 Y126.146 E8.99922
G1 X100.69 Y126.042 E9.02483
G1 X99.837 Y125.826 E9.0541
G1 X99.212 Y125.989 E9.07558
G1 X98.911 Y126.047 E9.08578
G1 X98.149 Y126.153 E9.11136
G1 X97.381 Y126.18 E9.13692
G1 X96.409 Y126.098 E9.16937
G1 X96.17 Y126.062 E9.17741
G1 X95.688 Y125.964 E9.19377
G1 X95.561 Y125.964 E9.19799
G1 X95.278 Y125.958 E9.2074
G1 X95.03 Y125.948 E9.21566
G1 X93.922 Y125.819 E9.25276
G1 X93.581 Y125.753 E9.26431
G1 X93.438 Y125.718 E9.26921
G1 X92.92 Y125.832 E9.28685
G1 X92.287 Y125.909 E9.30806
G1 X91.816 Y125.945 E9.32377
G1 X91.678 Y125.953 E9.32837
G1 X91.25 Y125.965 E9.34261
G1 X90.768 Y125.965 E9.35864
G1 X90.05 Y125.93 E9.38255
G1 X89.732 Y125.899 E9.39318
G1 X88.971 Y125.785 E9.41877
G1 X88.227 Y125.592 E9.44433
G1 X87.79 Y125.439 E9.45973
G1 X87.437 Y125.303 E9.47232
G1 X86.734 Y124.99 E9.49791
G1 X86.068 Y124.605 E9.5235
G1 X85.446 Y124.153 E9.54907
G1 X84.873 Y123.64 E9.57465
G1 X84.228 Y122.905 E9.60718
G1 X84.036 Y122.655 E9.61766
G1 X83.6 Y122.022 E9.64322
G1 X83.232 Y121.346 E9.66882
G1 X82.936 Y120.636 E9.69441
G1 X82.753 Y120.046 E9.71495
G1 X82.71 Y119.884 E9.72053
G1 X82.551 Y119.132 E9.74609
G1 X82.481 Y118.513 E9.76681
G1 X82.465 Y118.289 E9.77428
G1 X82.446 Y117.761 E9.79185
G1 X82.447 Y112.025 E9.98263
G1 X82.519 Y110.997 E10.01691
G1 X82.568 Y110.648 E10.02863
G1 X82.714 Y109.893 E10.05421
G1 X82.938 Y109.157 E10.0798
G1 X83.237 Y108.449 E10.10536
G1 X83.43 Y108.079 E10.11924
G1 X83.573 Y107.822 E10.12902
G1 X83.981 Y107.17 E10.1546
G1 X84.455 Y106.564 E10.18019
G1 X84.989 Y106.011 E10.20576
G1 X85.652 Y105.461 E10.23441
G0 F6000 X85.889 Y105.783
G1 F600 X86.071 Y105.649 E10.24193
G1 X86.696 Y105.238 E10.26681
G1 X87.361 Y104.897 E10.29166
G1 X88.06 Y104.628 E10.31657
G1 X88.756 Y104.441 E10.34054
G1 X89.069 Y104.374 E10.35119
G1 X89.808 Y104.257 E10.37608
G1 X90.555 Y104.219 E10.40095
G1 X91.302 Y104.261 E10.42584
G1 X91.759 Y104.327 E10.4412
G1 X91.963 Y104.363 E10.44809
G1 X92.075 Y104.343 E10.45187
G1 X92.38 Y104.297 E10.46213
G1 X93.125 Y104.225 E10.48702
G1 X93.873 Y104.233 E10.5119
G1 X94.388 Y104.286 E10.52912
G1 X94.69 Y104.328 E10.53926
G1 X94.894 Y104.367 E10.54617
G1 X95.401 Y104.285 E10.56325
G1 X95.401 Y102.107 E10.63569
G1 X95.413 Y101.697 E10.64934
G1 X95.425 Y101.493 E10.65613
G1 X95.574 Y100.411 E10.69246
G1 X95.617 Y100.214 E10.69917
G1 X95.815 Y99.493 E10.72404
G1 X96.09 Y98.797 E10.74893
G1 X96.35 Y98.285 E10.76802
G1 X96.503 Y98.012 E10.77843
G1 X96.903 Y97.38 E10.80331
G1 X97.368 Y96.794 E10.82819
G1 X97.893 Y96.261 E10.85307
G1 X98.472 Y95.787 E10.87796
G1 X99.1 Y95.377 E10.90291
G1 X99.371 Y95.22 E10.91332
G1 X100.037 Y94.88 E10.9382
G1 X100.736 Y94.613 E10.96308
G1 X101.354 Y94.445 E10.98438
G1 X101.542 Y94.403 E10.99079
G1 X102.608 Y94.25 E11.02661
G1 X102.851 Y94.234 E11.03471
G1 X103.311 Y94.219 E11.05002
G1 X105.61 Y94.219 E11.12648
G1 X106.057 Y94.226 E11.14135
G1 X106.245 Y94.232 E11.14761
