;FLAVOR:Marlin
;TIME:1105
;Filament used: 0.397917m
;Layer height: 0.15
;MINX:87.95
;MINY:82.2
;MINZ:0.2
;MAXX:132.05
;MAXY:137.8
;MAXZ:3.5
;Generated with Cura_SteamEngine 4.11.0
M140 S65
M105
M190 S65
M104 S210
M105
M109 S210
M82 ;absolute extrusion mode
M201 X500.00 Y500.00 Z100.00 E5000.00 ;Setup machine max acceleration
M203 X500.00 Y500.00 Z10.00 E50.00 ;Setup machine max feedrate
M204 P500.00 R1000.00 T500.00 ;Setup Print/Retract/Travel acceleration
M205 X8.00 Y8.00 Z0.40 E5.00 ;Setup Jerk
M220 S100 ;Reset Feedrate
M221 S100 ;Reset Flowrate

G28 ;Home
G29 ;Auto Bed Leveling
M420 S1 Z2 ;Enable ABL using saved Mesh and Fade Height

G92 E0 ;Reset Extruder
G1 Z2.0 F3000 ;Move Z Axis up
G1 X10.1 Y20 Z0.28 F5000.0 ;Move to start position
G1 X10.1 Y200.0 Z0.28 F1500.0 E15 ;Draw the first line
G1 X10.4 Y200.0 Z0.28 F5000.0 ;Move to side a little
G1 X10.4 Y20 Z0.28 F1500.0 E30 ;Draw the second line
G92 E0 ;Reset Extruder
G1 Z2.0 F3000 ;Move Z Axis up
G92 E0
G92 E0
G1 F2700 E-5
;LAYER_COUNT:23
;LAYER:0
M107
G0 F6000 X102.33 Y84.922 Z0.2
;TYPE:SKIRT
G1 F2700 E0
G1 F600 X102.873 Y84.349 E0.02626
G1 X103.472 Y83.834 E0.05253
G1 X104.12 Y83.383 E0.07879
G1 X104.811 Y82.999 E0.10508
G1 X105.536 Y82.687 E0.13133
G1 X106.289 Y82.45 E0.15759
G1 X107.063 Y82.291 E0.18387
G1 X107.848 Y82.21 E0.21012
G1 X108.25 Y82.2 E0.22349
G1 X111.75 Y82.2 E0.3399
G1 X112.539 Y82.24 E0.36618
G1 X113.319 Y82.359 E0.39242
G1 X114.084 Y82.557 E0.41871
G1 X114.824 Y82.831 E0.44495
G1 X115.533 Y83.179 E0.47122
G1 X116.204 Y83.597 E0.49751
G1 X116.828 Y84.08 E0.52376
G1 X117.401 Y84.623 E0.55001
G1 X117.916 Y85.222 E0.57629
G1 X118.367 Y85.87 E0.60255
G1 X118.751 Y86.561 E0.62884
G1 X119.063 Y87.286 E0.65509
G1 X119.3 Y88.039 E0.68135
G1 X119.459 Y88.813 E0.70763
G1 X119.54 Y89.598 E0.73388
G1 X119.55 Y90 E0.74725
G1 X119.55 Y107.452 E1.32771
G1 X127.33 Y110.796 E1.60936
G1 X128.039 Y111.144 E1.63563
G1 X128.709 Y111.562 E1.6619
G1 X129.333 Y112.046 E1.68816
G1 X129.905 Y112.59 E1.71442
G1 X130.419 Y113.189 E1.74067
G1 X130.87 Y113.837 E1.76693
G1 X131.253 Y114.528 E1.7932
G1 X131.565 Y115.254 E1.81949
G1 X131.801 Y116.007 E1.84573
G1 X131.96 Y116.781 E1.87201
G1 X132.04 Y117.566 E1.89826
G1 X132.05 Y117.962 E1.91143
G1 X132.05 Y130 E2.31182
G1 X132.01 Y130.789 E2.33809
G1 X131.891 Y131.569 E2.36434
G1 X131.693 Y132.334 E2.39062
G1 X131.419 Y133.074 E2.41687
G1 X131.071 Y133.783 E2.44313
G1 X130.653 Y134.454 E2.46943
G1 X130.17 Y135.078 E2.49567
G1 X129.627 Y135.651 E2.52193
G1 X129.028 Y136.166 E2.5482
G1 X128.38 Y136.617 E2.57446
G1 X127.689 Y137.001 E2.60076
G1 X126.964 Y137.313 E2.62701
G1 X126.211 Y137.55 E2.65326
G1 X125.437 Y137.709 E2.67954
G1 X124.652 Y137.79 E2.70579
G1 X124.25 Y137.8 E2.71917
G1 X120.75 Y137.8 E2.83558
G1 X119.961 Y137.76 E2.86185
G1 X119.181 Y137.641 E2.8881
G1 X118.416 Y137.443 E2.91438
G1 X117.676 Y137.169 E2.94062
G1 X116.967 Y136.821 E2.96689
G1 X116.296 Y136.403 E2.99319
G1 X115.672 Y135.92 E3.01943
G1 X115.099 Y135.377 E3.04569
G1 X114.584 Y134.778 E3.07196
G1 X114.133 Y134.13 E3.09822
G1 X113.749 Y133.439 E3.12451
G1 X113.437 Y132.714 E3.15077
G1 X113.2 Y131.961 E3.17702
G1 X113.041 Y131.187 E3.2033
G1 X112.96 Y130.402 E3.22955
G1 X112.95 Y130 E3.24293
G1 X112.95 Y125.137 E3.40467
G1 X110 Y123.869 E3.51147
G1 X107.05 Y125.137 E3.61826
G1 X107.05 Y130 E3.78001
G1 X107.01 Y130.789 E3.80628
G1 X106.891 Y131.569 E3.83253
G1 X106.693 Y132.334 E3.85881
G1 X106.419 Y133.074 E3.88506
G1 X106.071 Y133.783 E3.91132
G1 X105.653 Y134.454 E3.93762
G1 X105.17 Y135.078 E3.96386
G1 X104.627 Y135.651 E3.99012
G1 X104.028 Y136.166 E4.01639
G1 X103.38 Y136.617 E4.04265
G1 X102.689 Y137.001 E4.06894
G1 X101.964 Y137.313 E4.0952
G1 X101.211 Y137.55 E4.12145
G1 X100.437 Y137.709 E4.14773
G1 X99.652 Y137.79 E4.17398
G1 X99.25 Y137.8 E4.18736
G1 X95.75 Y137.8 E4.30377
G1 X94.961 Y137.76 E4.33004
G1 X94.181 Y137.641 E4.35629
G1 X93.416 Y137.443 E4.38257
G1 X92.676 Y137.169 E4.40881
G1 X91.967 Y136.821 E4.43508
G1 X91.296 Y136.403 E4.46138
G1 X90.672 Y135.92 E4.48762
G1 X90.099 Y135.377 E4.51388
G1 X89.584 Y134.778 E4.54015
G1 X89.133 Y134.13 E4.56641
G1 X88.749 Y133.439 E4.5927
G1 X88.437 Y132.714 E4.61896
G1 X88.2 Y131.961 E4.64521
G1 X88.041 Y131.187 E4.67149
G1 X87.96 Y130.402 E4.69774
G1 X87.95 Y130 E4.71111
G1 X87.95 Y117.962 E5.1115
G1 X87.99 Y117.173 E5.13778
G1 X88.109 Y116.393 E5.16402
G1 X88.307 Y115.628 E5.1903
G1 X88.581 Y114.888 E5.21655
G1 X88.929 Y114.179 E5.24282
G1 X89.347 Y113.508 E5.26911
G1 X89.83 Y112.884 E5.29535
G1 X90.373 Y112.311 E5.32161
G1 X90.972 Y111.796 E5.34788
G1 X91.62 Y111.345 E5.37414
G1 X92.311 Y110.961 E5.40044
G1 X92.67 Y110.796 E5.41358
G1 X100.45 Y107.452 E5.69523
G1 X100.45 Y90 E6.27569
G1 X100.49 Y89.211 E6.30196
G1 X100.609 Y88.431 E6.32821
G1 X100.807 Y87.666 E6.35449
G1 X101.081 Y86.926 E6.38074
G1 X101.429 Y86.217 E6.407
G1 X101.847 Y85.546 E6.4333
G1 X102.33 Y84.922 E6.45954
G0 F6000 X102.725 Y85.077
G1 F600 X103.266 Y84.53 E6.48513
G1 X103.861 Y84.042 E6.51073
G1 X104.503 Y83.619 E6.5363
G1 X105.186 Y83.264 E6.5619
G1 X105.901 Y82.983 E6.58745
G1 X106.643 Y82.777 E6.61306
G1 X107.401 Y82.649 E6.63863
G1 X108.25 Y82.6 E6.66692
G1 X111.75 Y82.6 E6.78333
G1 X112.518 Y82.64 E6.8089
G1 X113.278 Y82.759 E6.83449
G1 X114.021 Y82.957 E6.86007
G1 X114.74 Y83.231 E6.88566
G1 X115.426 Y83.578 E6.91123
G1 X116.073 Y83.994 E6.93681
G1 X116.673 Y84.475 E6.96239
G1 X117.22 Y85.016 E6.98798
G1 X117.708 Y85.611 E7.01357
G1 X118.131 Y86.253 E7.03914
G1 X118.486 Y86.936 E7.06474
G1 X118.767 Y87.651 E7.09029
G1 X118.973 Y88.393 E7.11591
G1 X119.101 Y89.151 E7.14148
G1 X119.15 Y90 E7.16976
G1 X119.15 Y107.715 E7.75896
G1 X127.172 Y111.163 E8.04938
G1 X127.862 Y111.503 E8.07496
G1 X128.513 Y111.913 E8.10055
G1 X129.118 Y112.388 E8.12613
G1 X129.67 Y112.924 E8.15173
G1 X130.163 Y113.513 E8.17727
G1 X130.593 Y114.151 E8.20286
G1 X130.955 Y114.83 E8.22845
G1 X131.243 Y115.543 E8.25403
G1 X131.457 Y116.282 E8.27962
G1 X131.592 Y117.039 E8.3052
G1 X131.65 Y117.962 E8.33595
G1 X131.65 Y130 E8.73634
G1 X131.61 Y130.768 E8.76192
G1 X131.491 Y131.528 E8.7875
G1 X131.293 Y132.271 E8.81308
G1 X131.019 Y132.99 E8.83867
G1 X130.672 Y133.676 E8.86424
G1 X130.256 Y134.323 E8.88982
G1 X129.775 Y134.923 E8.9154
G1 X129.234 Y135.47 E8.94099
G1 X128.639 Y135.958 E8.96658
G1 X127.997 Y136.381 E8.99216
G1 X127.314 Y136.736 E9.01776
G1 X126.599 Y137.017 E9.04331
G1 X125.857 Y137.223 E9.06892
G1 X125.099 Y137.351 E9.09449
G1 X124.25 Y137.4 E9.12277
G1 X120.75 Y137.4 E9.23918
G1 X119.982 Y137.36 E9.26476
G1 X119.222 Y137.241 E9.29035
G1 X118.479 Y137.043 E9.31592
G1 X117.76 Y136.769 E9.34152
G1 X117.074 Y136.422 E9.36708
G1 X116.427 Y136.006 E9.39267
G1 X115.827 Y135.525 E9.41825
G1 X115.28 Y134.984 E9.44383
G1 X114.792 Y134.389 E9.46943
G1 X114.369 Y133.747 E9.495
G1 X114.014 Y133.064 E9.5206
G1 X113.733 Y132.349 E9.54615
G1 X113.527 Y131.607 E9.57177
G1 X113.399 Y130.849 E9.59733
G1 X113.35 Y130 E9.62562
G1 X113.35 Y124.873 E9.79614
G1 X110 Y123.433 E9.91742
G1 X106.65 Y124.873 E10.0387
G1 X106.65 Y130 E10.20923
G1 X106.61 Y130.768 E10.2348
G1 X106.491 Y131.528 E10.26039
G1 X106.293 Y132.271 E10.28596
G1 X106.019 Y132.99 E10.31156
G1 X105.672 Y133.676 E10.33713
G1 X105.256 Y134.323 E10.36271
G1 X104.775 Y134.923 E10.38829
G1 X104.234 Y135.47 E10.41387
G1 X103.639 Y135.958 E10.43947
G1 X102.997 Y136.381 E10.46504
G1 X102.314 Y136.736 E10.49064
G1 X101.599 Y137.017 E10.51619
G1 X100.857 Y137.223 E10.54181
G1 X100.099 Y137.351 E10.56737
G1 X99.25 Y137.4 E10.59566
G1 X95.75 Y137.4 E10.71207
G1 X94.982 Y137.36 E10.73765
G1 X94.222 Y137.241 E10.76323
G1 X93.479 Y137.043 E10.78881
G1 X92.76 Y136.769 E10.8144
G1 X92.074 Y136.422 E10.83997
G1 X91.427 Y136.006 E10.86555
G1 X90.827 Y135.525 E10.89113
G1 X90.28 Y134.984 E10.91672
G1 X89.792 Y134.389 E10.94231
G1 X89.369 Y133.747 E10.96788
G1 X89.014 Y133.064 E10.99349
G1 X88.733 Y132.349 E11.01904
G1 X88.527 Y131.607 E11.04465
G1 X88.399 Y130.849 E11.07022
G1 X88.35 Y130 E11.0985
G1 X88.35 Y117.962 E11.49889
G1 X88.39 Y117.194 E11.52447
G1 X88.509 Y116.434 E11.55005
G1 X88.707 Y115.691 E11.57563
G1 X88.981 Y114.972 E11.60122
G1 X89.328 Y114.286 E11.62679
G1 X89.744 Y113.639 E11.65237
G1 X90.225 Y113.039 E11.67795
G1 X90.766 Y112.492 E11.70354
G1 X91.361 Y112.004 E11.72913
G1 X92.003 Y111.581 E11.7547
G1 X92.828 Y111.163 E11.78546
G1 X100.85 Y107.715 E12.07588
G1 X100.85 Y90 E12.66508
G1 X100.89 Y89.232 E12.69066
G1 X101.009 Y88.472 E12.71625
G1 X101.207 Y87.729 E12.74182
G1 X101.481 Y87.01 E12.76741
G1 X101.828 Y86.324 E12.79298
G1 X102.244 Y85.677 E12.81857
G1 X102.725 Y85.077 E12.84414
G0 F6000 X103.121 Y85.237
G1 F600 X103.658 Y84.716 E12.86903
G1 X104.248 Y84.257 E12.89389
G1 X104.884 Y83.862 E12.91879
G1 X105.558 Y83.538 E12.94367
G1 X106.263 Y83.288 E12.96854
G1 X106.991 Y83.114 E12.99344
G1 X107.733 Y83.019 E13.01832
G1 X108.25 Y83 E13.03553
G1 X111.75 Y83 E13.15194
G1 X112.497 Y83.04 E13.17682
G1 X113.235 Y83.159 E13.20168
G1 X113.957 Y83.357 E13.22658
G1 X114.653 Y83.63 E13.25145
G1 X115.316 Y83.977 E13.27634
G1 X115.939 Y84.392 E13.30124
G1 X116.513 Y84.871 E13.3261
G1 X117.034 Y85.408 E13.35099
G1 X117.493 Y85.998 E13.37585
G1 X117.888 Y86.634 E13.40075
G1 X118.212 Y87.308 E13.42562
G1 X118.462 Y88.013 E13.4505
G1 X118.636 Y88.741 E13.4754
G1 X118.731 Y89.483 E13.50028
G1 X118.75 Y90 E13.51748
G1 X118.75 Y107.979 E14.11547
G1 X127.014 Y111.531 E14.41464
G1 X127.684 Y111.862 E14.4395
G1 X128.316 Y112.264 E14.46441
G1 X128.901 Y112.73 E14.48929
G1 X129.432 Y113.256 E14.51415
G1 X129.905 Y113.836 E14.53904
G1 X130.313 Y114.463 E14.56392
G1 X130.652 Y115.13 E14.58881
G1 X130.917 Y115.83 E14.6137
G1 X131.107 Y116.553 E14.63856
G1 X131.218 Y117.293 E14.66345
G1 X131.25 Y117.962 E14.68573
G1 X131.25 Y130 E15.08611
G1 X131.21 Y130.747 E15.11099
G1 X131.091 Y131.485 E15.13586
G1 X130.893 Y132.207 E15.16076
G1 X130.62 Y132.903 E15.18562
G1 X130.273 Y133.566 E15.21051
G1 X129.858 Y134.189 E15.23541
G1 X129.379 Y134.763 E15.26028
G1 X128.842 Y135.284 E15.28516
G1 X128.252 Y135.743 E15.31002
G1 X127.616 Y136.138 E15.33493
G1 X126.942 Y136.462 E15.3598
G1 X126.237 Y136.712 E15.38468
G1 X125.509 Y136.886 E15.40957
G1 X124.767 Y136.981 E15.43445
G1 X124.25 Y137 E15.45166
G1 X120.75 Y137 E15.56807
G1 X120.003 Y136.96 E15.59295
G1 X119.265 Y136.841 E15.61781
G1 X118.543 Y136.643 E15.64272
G1 X117.847 Y136.37 E15.66758
G1 X117.184 Y136.023 E15.69247
G1 X116.561 Y135.608 E15.71737
G1 X115.987 Y135.129 E15.74223
G1 X115.466 Y134.592 E15.76712
G1 X115.007 Y134.002 E15.79198
G1 X114.612 Y133.366 E15.81688
G1 X114.288 Y132.692 E15.84176
G1 X114.038 Y131.987 E15.86663
G1 X113.864 Y131.259 E15.89153
G1 X113.769 Y130.517 E15.91641
G1 X113.75 Y130 E15.93362
G1 X113.75 Y124.61 E16.11289
G1 X110 Y122.998 E16.24865
G1 X106.25 Y124.61 E16.38441
G1 X106.25 Y130 E16.56368
G1 X106.21 Y130.747 E16.58856
G1 X106.091 Y131.485 E16.61343
G1 X105.893 Y132.207 E16.63833
G1 X105.62 Y132.903 E16.66319
G1 X105.273 Y133.566 E16.68808
G1 X104.858 Y134.189 E16.71298
G1 X104.379 Y134.763 E16.73785
G1 X103.842 Y135.284 E16.76273
G1 X103.252 Y135.743 E16.78759
G1 X102.616 Y136.138 E16.8125
G1 X101.942 Y136.462 E16.83737
G1 X101.237 Y136.712 E16.86225
G1 X100.509 Y136.886 E16.88714
G1 X99.767 Y136.981 E16.91202
G1 X99.25 Y137 E16.92923
G1 X95.75 Y137 E17.04564
G1 X95.003 Y136.96 E17.07052
G1 X94.265 Y136.841 E17.09538
G1 X93.543 Y136.643 E17.12029
G1 X92.847 Y136.37 E17.14515
G1 X92.184 Y136.023 E17.17004
G1 X91.561 Y135.608 E17.19494
G1 X90.987 Y135.129 E17.2198
G1 X90.466 Y134.592 E17.24469
G1 X90.007 Y134.002 E17.26955
G1 X89.612 Y133.366 E17.29445
G1 X89.288 Y132.692 E17.31933
G1 X89.038 Y131.987 E17.3442
G1 X88.864 Y131.259 E17.3691
G1 X88.769 Y130.517 E17.39398
G1 X88.75 Y130 E17.41119
G1 X88.75 Y117.962 E17.81157
G1 X88.79 Y117.215 E17.83645
G1 X88.909 Y116.477 E17.86132
G1 X89.107 Y115.755 E17.88622
G1 X89.38 Y115.059 E17.91108
G1 X89.727 Y114.396 E17.93597
G1 X90.142 Y113.773 E17.96087
G1 X90.621 Y113.199 E17.98574
G1 X91.158 Y112.678 E18.01062
G1 X91.748 Y112.219 E18.03548
G1 X92.384 Y111.824 E18.06038
G1 X92.986 Y111.531 E18.08265
G1 X101.25 Y107.979 E18.38183
G1 X101.25 Y90 E18.97981
G1 X101.29 Y89.253 E19.00469
G1 X101.409 Y88.515 E19.02956
G1 X101.607 Y87.793 E19.05446
G1 X101.88 Y87.097 E19.07932
G1 X102.227 Y86.434 E19.10421
G1 X102.642 Y85.811 E19.12911
G1 X103.121 Y85.237 E19.15398
G0 F6000 X103.039 Y85.95
G1 F600 X103.515 Y85.402 E19.17812
G1 X104.049 Y84.909 E19.20229
G1 X104.634 Y84.479 E19.22644
G1 X105.263 Y84.115 E19.25061
G1 X105.928 Y83.822 E19.27478
G1 X106.621 Y83.604 E19.29894
G1 X107.333 Y83.464 E19.32308
G1 X108.25 Y83.4 E19.35365
G1 X111.75 Y83.4 E19.47006
G1 X112.475 Y83.44 E19.49421
G1 X113.192 Y83.559 E19.51839
G1 X113.891 Y83.757 E19.54255
G1 X114.564 Y84.03 E19.5667
G1 X115.203 Y84.375 E19.59086
G1 X115.8 Y84.789 E19.61502
G1 X116.348 Y85.265 E19.63916
G1 X116.841 Y85.799 E19.66334
G1 X117.271 Y86.384 E19.68748
G1 X117.635 Y87.013 E19.71165
G1 X117.928 Y87.678 E19.73582
G1 X118.146 Y88.371 E19.75999
G1 X118.286 Y89.083 E19.78412
G1 X118.35 Y90 E19.8147
G1 X118.35 Y108.242 E20.42143
G1 X126.856 Y111.898 E20.72936
G1 X127.507 Y112.221 E20.75353
G1 X128.118 Y112.614 E20.7777
G1 X128.682 Y113.071 E20.80184
G1 X129.192 Y113.588 E20.826
G1 X129.643 Y114.158 E20.85017
G1 X130.029 Y114.773 E20.87432
G1 X130.344 Y115.428 E20.89849
G1 X130.586 Y116.113 E20.92266
G1 X130.75 Y116.82 E20.9468
G1 X130.837 Y117.541 E20.97095
G1 X130.85 Y117.962 E20.98496
G1 X130.85 Y130 E21.38535
G1 X130.81 Y130.725 E21.4095
G1 X130.691 Y131.442 E21.43367
G1 X130.493 Y132.141 E21.45783
G1 X130.22 Y132.814 E21.48199
G1 X129.875 Y133.453 E21.50614
G1 X129.461 Y134.05 E21.53031
G1 X128.985 Y134.598 E21.55445
G1 X128.451 Y135.091 E21.57862
G1 X127.866 Y135.521 E21.60277
G1 X127.237 Y135.885 E21.62694
G1 X126.572 Y136.178 E21.65111
G1 X125.879 Y136.396 E21.67527
G1 X125.167 Y136.536 E21.69941
G1 X124.25 Y136.6 E21.72998
G1 X120.75 Y136.6 E21.84639
G1 X120.025 Y136.56 E21.87054
G1 X119.308 Y136.441 E21.89472
G1 X118.609 Y136.243 E21.91888
G1 X117.936 Y135.97 E21.94303
G1 X117.297 Y135.625 E21.96719
G1 X116.7 Y135.211 E21.99135
G1 X116.152 Y134.735 E22.01549
G1 X115.659 Y134.201 E22.03967
G1 X115.229 Y133.616 E22.06381
G1 X114.865 Y132.987 E22.08799
G1 X114.572 Y132.322 E22.11215
G1 X114.354 Y131.629 E22.13632
G1 X114.214 Y130.917 E22.16045
G1 X114.15 Y130 E22.19103
G1 X114.15 Y124.347 E22.37905
G1 X110 Y122.563 E22.52929
G1 X105.85 Y124.347 E22.67953
G1 X105.85 Y130 E22.86755
G1 X105.81 Y130.725 E22.8917
G1 X105.691 Y131.442 E22.91587
G1 X105.493 Y132.141 E22.94004
G1 X105.22 Y132.814 E22.96419
G1 X104.875 Y133.453 E22.98835
G1 X104.461 Y134.05 E23.01251
G1 X103.985 Y134.598 E23.03665
G1 X103.451 Y135.091 E23.06083
G1 X102.866 Y135.521 E23.08497
G1 X102.237 Y135.885 E23.10914
G1 X101.572 Y136.178 E23.13331
G1 X100.879 Y136.396 E23.15748
G1 X100.167 Y136.536 E23.18161
G1 X99.25 Y136.6 E23.21219
G1 X95.75 Y136.6 E23.3286
G1 X95.025 Y136.56 E23.35275
G1 X94.308 Y136.441 E23.37692
G1 X93.609 Y136.243 E23.40108
G1 X92.936 Y135.97 E23.42524
G1 X92.297 Y135.625 E23.44939
G1 X91.7 Y135.211 E23.47356
G1 X91.152 Y134.735 E23.4977
G1 X90.659 Y134.201 E23.52187
G1 X90.229 Y133.616 E23.54602
G1 X89.865 Y132.987 E23.57019
G1 X89.572 Y132.322 E23.59436
G1 X89.354 Y131.629 E23.61852
G1 X89.214 Y130.917 E23.64266
G1 X89.15 Y130 E23.67323
G1 X89.15 Y117.962 E24.07362
G1 X89.19 Y117.237 E24.09777
G1 X89.309 Y116.52 E24.12194
G1 X89.507 Y115.821 E24.1461
G1 X89.78 Y115.148 E24.17026
G1 X90.125 Y114.509 E24.19441
G1 X90.539 Y113.912 E24.21858
G1 X91.015 Y113.364 E24.24272
G1 X91.549 Y112.871 E24.26689
G1 X92.134 Y112.441 E24.29104
G1 X92.763 Y112.077 E24.31521
G1 X93.144 Y111.898 E24.32921
G1 X101.65 Y108.242 E24.63715
G1 X101.65 Y90 E25.24388
G1 X101.69 Y89.275 E25.26803
G1 X101.809 Y88.558 E25.2922
G1 X102.007 Y87.859 E25.31637
G1 X102.28 Y87.186 E25.34052
G1 X102.625 Y86.547 E25.36468
G1 X103.039 Y85.95 E25.38884
G0 F6000 X103.435 Y86.094
G1 F600 X103.909 Y85.573 E25.41227
G1 X104.439 Y85.109 E25.43569
